;FLAVOR:Marlin
;TIME:6938
;Filament used: 6.13757m
;Layer height: 0.2
;MINX:73.124
;MINY:73.114
;MINZ:0.2
;MAXX:146.892
;MAXY:146.89
;MAXZ:65
;TARGET_MACHINE.NAME:Creality Ender-3 S1 Pro
;Generated with Cura_SteamEngine 5.8.1
M82 ;absolute extrusion mode
; Ender 3 S1 Pro Start G-code
; M413 S0 ; Disable power loss recovery
G92 E0 ; Reset Extruder

; Prep surfaces before auto home for better accuracy
M140 S60
M104 S200

G28 ; Home all axes
G1 Z10.0 F3000 ; Move Z Axis up little to prevent scratching of Heat Bed
G1 X0 Y0

M190 S60
M109 S200

G1 X0.1 Y20 Z0.3 F5000.0 ; Move to start position
G1 X0.1 Y200.0 Z0.3 F1500.0 E15 ; Draw the first line
G1 X0.4 Y200.0 Z0.3 F5000.0 ; Move to side a little
G1 X0.4 Y20 Z0.3 F1500.0 E30 ; Draw the second line
G92 E0 ; Reset Extruder
G1 Z2.0 F3000 ; Move Z Axis up little to prevent scratching of Heat Bed
G1 X5 Y20 Z0.3 F5000.0 ; Move over to prevent blob squish

G92 E0
G92 E0
G1 F2400 E-0.8
;LAYER_COUNT:325
;LAYER:0
M107
M204 S2000
G0 F7500 X84.133 Y83.716 Z0.2
M204 S500
;TYPE:SKIRT
G1 F2400 E0
G1 F1500 X84.747 Y83.121 E0.02844
G1 X85.93 Y82.06 E0.08129
G1 X86.562 Y81.525 E0.10883
G1 X87.952 Y80.437 E0.16754
G1 X88.642 Y79.931 E0.196
G1 X90.069 Y78.971 E0.2532
G1 X90.765 Y78.532 E0.28057
G1 X92.276 Y77.658 E0.33863
G1 X92.987 Y77.276 E0.36548
G1 X94.5 Y76.535 E0.42151
G1 X95.254 Y76.192 E0.44906
G1 X96.911 Y75.519 E0.50854
G1 X97.988 Y75.129 E0.54664
G1 X99.344 Y74.691 E0.59404
G1 X100.074 Y74.476 E0.61935
G1 X101.721 Y74.059 E0.67586
G1 X102.167 Y73.957 E0.69107
G1 X103.284 Y73.728 E0.729
G1 X103.838 Y73.63 E0.74771
G1 X104.985 Y73.458 E0.78629
G1 X105.458 Y73.398 E0.80214
G1 X107.206 Y73.221 E0.86058
G1 X107.931 Y73.174 E0.88474
G1 X109.291 Y73.123 E0.93001
G1 X110.102 Y73.114 E0.95698
G1 X111.828 Y73.162 E1.01441
G1 X112.674 Y73.211 E1.0426
G1 X114.363 Y73.374 E1.09904
G1 X115.428 Y73.511 E1.13475
G1 X116.504 Y73.687 E1.17101
G1 X118.378 Y74.072 E1.23465
G1 X118.957 Y74.213 E1.25447
G1 X120.101 Y74.522 E1.29388
G1 X120.565 Y74.658 E1.30996
G1 X121.933 Y75.095 E1.35773
G1 X122.942 Y75.457 E1.39338
G1 X124.487 Y76.074 E1.44871
G1 X125.256 Y76.416 E1.47671
G1 X126.543 Y77.03 E1.52413
G1 X127.609 Y77.586 E1.56412
G1 X128.717 Y78.213 E1.60646
G1 X129.433 Y78.643 E1.63424
G1 X130.981 Y79.659 E1.69583
G1 X131.865 Y80.29 E1.73195
G1 X133.286 Y81.386 E1.79164
G1 X133.876 Y81.878 E1.81719
G1 X134.961 Y82.838 E1.86538
G1 X135.501 Y83.339 E1.88988
G1 X136.892 Y84.744 E1.95564
G1 X137.506 Y85.417 E1.98594
G1 X138.645 Y86.75 E2.04425
G1 X139.162 Y87.403 E2.07195
G1 X140.179 Y88.781 E2.12892
G1 X140.639 Y89.455 E2.15606
G1 X141.408 Y90.647 E2.20324
G1 X141.981 Y91.609 E2.24048
G1 X142.69 Y92.901 E2.2895
G1 X143.179 Y93.869 E2.32557
G1 X143.733 Y95.066 E2.36944
G1 X144.06 Y95.824 E2.39689
G1 X144.697 Y97.469 E2.45557
G1 X144.969 Y98.24 E2.48276
G1 X145.473 Y99.872 E2.53957
G1 X145.694 Y100.668 E2.56705
G1 X146.082 Y102.308 E2.6231
G1 X146.243 Y103.091 E2.64969
G1 X146.532 Y104.865 E2.70947
G1 X146.634 Y105.618 E2.73474
G1 X146.802 Y107.42 E2.79493
G1 X146.852 Y108.225 E2.82176
G1 X146.892 Y109.995 E2.88065
G1 X146.887 Y110.773 E2.90652
G1 X146.805 Y112.554 E2.96582
G1 X146.712 Y113.64 E3.00207
G1 X146.548 Y115.034 E3.04876
G1 X146.384 Y116.162 E3.08667
G1 X146.269 Y116.789 E3.10787
G1 X145.972 Y118.192 E3.15557
G1 X145.855 Y118.692 E3.17265
G1 X145.431 Y120.289 E3.22761
G1 X145.174 Y121.126 E3.25673
G1 X144.727 Y122.451 E3.30324
G1 X144.476 Y123.137 E3.32753
G1 X144.328 Y123.512 E3.34094
G1 X143.639 Y125.152 E3.40011
G1 X143.299 Y125.879 E3.4268
G1 X142.726 Y127.029 E3.46954
G1 X142.384 Y127.679 E3.49396
G1 X142.157 Y128.082 E3.50935
G1 X141.422 Y129.327 E3.55744
G1 X140.998 Y130.006 E3.58406
G1 X140.095 Y131.332 E3.63742
G1 X139.078 Y132.707 E3.6943
G1 X138.716 Y133.164 E3.71369
G1 X138.024 Y133.992 E3.74958
G1 X137.714 Y134.347 E3.76526
G1 X136.49 Y135.678 E3.8254
G1 X135.947 Y136.224 E3.85101
G1 X134.81 Y137.304 E3.90317
G1 X134.114 Y137.917 E3.93402
G1 X133 Y138.841 E3.98216
G1 X132.107 Y139.532 E4.01971
G1 X130.854 Y140.429 E4.07096
G1 X130.019 Y140.984 E4.10431
G1 X128.956 Y141.645 E4.14595
G1 X128.245 Y142.063 E4.17338
G1 X127.872 Y142.269 E4.18755
G1 X126.318 Y143.085 E4.24593
G1 X125.32 Y143.563 E4.28273
G1 X124.8 Y143.792 E4.30163
G1 X123.648 Y144.271 E4.34313
G1 X123.224 Y144.435 E4.35825
G1 X121.951 Y144.896 E4.40328
G1 X120.816 Y145.265 E4.44297
G1 X119.119 Y145.743 E4.50161
G1 X118.376 Y145.921 E4.52702
G1 X116.967 Y146.221 E4.57494
G1 X116.205 Y146.363 E4.60072
G1 X114.552 Y146.602 E4.65627
G1 X113.763 Y146.694 E4.68269
G1 X113.35 Y146.732 E4.69648
G1 X111.544 Y146.855 E4.75669
G1 X110.712 Y146.884 E4.78438
G1 X110.118 Y146.89 E4.80414
G1 X108.552 Y146.861 E4.85623
G1 X108.006 Y146.836 E4.87441
G1 X106.906 Y146.755 E4.9111
G1 X105.674 Y146.628 E4.95229
G1 X104.088 Y146.408 E5.00554
G1 X103.219 Y146.254 E5.0349
G1 X101.875 Y145.976 E5.08055
G1 X101.086 Y145.791 E5.1075
G1 X100.709 Y145.693 E5.12046
G1 X99.101 Y145.237 E5.17605
G1 X98.281 Y144.971 E5.20472
G1 X97.003 Y144.516 E5.24984
G1 X95.853 Y144.067 E5.2909
G1 X95.322 Y143.839 E5.31012
G1 X94.066 Y143.262 E5.35609
G1 X93.595 Y143.032 E5.37353
G1 X92.31 Y142.362 E5.42173
G1 X91.305 Y141.798 E5.46006
G1 X90.906 Y141.56 E5.47551
G1 X89.998 Y140.984 E5.51127
G1 X88.994 Y140.309 E5.55151
G1 X87.914 Y139.534 E5.59572
G1 X87.126 Y138.927 E5.62881
G1 X85.806 Y137.837 E5.68574
G1 X85.179 Y137.287 E5.71349
G1 X84.72 Y136.861 E5.73431
G1 X83.736 Y135.89 E5.78029
G1 X83.393 Y135.534 E5.79674
G1 X82.437 Y134.499 E5.8436
G1 X81.878 Y133.859 E5.87186
G1 X80.799 Y132.523 E5.92898
G1 X80.314 Y131.882 E5.95571
G1 X79.329 Y130.473 E6.01289
G1 X78.887 Y129.801 E6.03964
G1 X77.974 Y128.28 E6.09865
G1 X77.408 Y127.254 E6.13762
G1 X76.783 Y126.017 E6.18372
G1 X76.306 Y124.985 E6.22153
G1 X75.642 Y123.404 E6.27856
G1 X75.358 Y122.645 E6.30552
G1 X74.878 Y121.239 E6.35493
G1 X74.551 Y120.163 E6.39234
G1 X74.197 Y118.828 E6.43827
G1 X74.019 Y118.076 E6.46398
G1 X73.671 Y116.327 E6.52329
G1 X73.542 Y115.549 E6.54952
G1 X73.322 Y113.804 E6.60802
G1 X73.225 Y112.711 E6.64451
G1 X73.137 Y110.983 E6.70206
G1 X73.124 Y109.745 E6.74324
G1 X73.15 Y108.604 E6.7812
G1 X73.2 Y107.608 E6.81437
G1 X73.322 Y106.19 E6.8617
G1 X73.457 Y105.063 E6.89946
G1 X73.672 Y103.663 E6.94657
G1 X73.804 Y102.936 E6.97114
G1 X73.885 Y102.547 E6.98436
G1 X74.291 Y100.79 E7.04433
G1 X74.481 Y100.092 E7.0684
G1 X75 Y98.38 E7.1279
G1 X75.242 Y97.681 E7.1525
G1 X75.713 Y96.424 E7.19714
G1 X76.186 Y95.285 E7.23816
G1 X76.736 Y94.083 E7.28213
G1 X77.101 Y93.337 E7.30975
G1 X77.952 Y91.756 E7.36947
G1 X78.368 Y91.041 E7.39698
G1 X79.301 Y89.568 E7.45498
G1 X79.714 Y88.955 E7.47956
G1 X80.742 Y87.552 E7.53741
G1 X81.243 Y86.909 E7.56452
G1 X82.34 Y85.609 E7.6211
G1 X82.884 Y85.004 E7.64816
G1 X84.133 Y83.716 E7.70783
M204 S2000
G0 F7500 X84.411 Y84.003
M204 S500
G1 F1500 X85.014 Y83.419 E7.73575
G1 X86.189 Y82.365 E7.78825
G1 X86.808 Y81.84 E7.81525
G1 X88.189 Y80.76 E7.87356
G1 X88.879 Y80.254 E7.90202
G1 X90.282 Y79.309 E7.95828
G1 X90.965 Y78.878 E7.98514
G1 X92.466 Y78.01 E8.04281
G1 X93.163 Y77.635 E8.06914
G1 X94.665 Y76.899 E8.12477
G1 X95.405 Y76.563 E8.1518
G1 X97.062 Y75.89 E8.21128
G1 X98.111 Y75.51 E8.24839
G1 X99.457 Y75.075 E8.29544
G1 X100.172 Y74.864 E8.32023
G1 X101.81 Y74.449 E8.37644
G1 X102.247 Y74.349 E8.39135
G1 X103.354 Y74.122 E8.42893
G1 X103.897 Y74.026 E8.44727
G1 X105.036 Y73.855 E8.48558
G1 X105.498 Y73.796 E8.50107
G1 X107.232 Y73.62 E8.55904
G1 X107.946 Y73.574 E8.58284
G1 X109.296 Y73.523 E8.62777
G1 X110.091 Y73.514 E8.65421
G1 X111.805 Y73.561 E8.71124
G1 X112.636 Y73.609 E8.73893
G1 X114.312 Y73.771 E8.79493
G1 X115.364 Y73.906 E8.83021
G1 X116.424 Y74.079 E8.86593
G1 X118.284 Y74.461 E8.92909
G1 X118.853 Y74.599 E8.94856
G1 X119.989 Y74.906 E8.9877
G1 X120.443 Y75.039 E9.00343
G1 X121.798 Y75.472 E9.05074
G1 X122.794 Y75.829 E9.08594
G1 X124.324 Y76.439 E9.14072
G1 X125.084 Y76.777 E9.16838
G1 X126.358 Y77.385 E9.21534
G1 X127.412 Y77.934 E9.25486
G1 X128.511 Y78.556 E9.29686
G1 X129.227 Y78.986 E9.32464
G1 X130.749 Y79.985 E9.38519
G1 X131.621 Y80.607 E9.42082
G1 X133.03 Y81.693 E9.47999
G1 X133.611 Y82.178 E9.50516
G1 X134.689 Y83.131 E9.55302
G1 X135.217 Y83.621 E9.57698
G1 X136.597 Y85.014 E9.64219
G1 X137.202 Y85.677 E9.67205
G1 X138.331 Y86.998 E9.72984
G1 X138.84 Y87.641 E9.75712
G1 X139.849 Y89.007 E9.8136
G1 X140.303 Y89.672 E9.84038
G1 X141.064 Y90.852 E9.88708
G1 X141.63 Y91.802 E9.92386
G1 X142.333 Y93.082 E9.97243
G1 X142.816 Y94.037 E10.00803
G1 X143.366 Y95.225 E10.05157
G1 X143.687 Y95.968 E10.07849
G1 X144.32 Y97.602 E10.13677
G1 X144.587 Y98.358 E10.16344
G1 X145.088 Y99.979 E10.21987
G1 X145.305 Y100.76 E10.24683
G1 X145.69 Y102.389 E10.30251
G1 X145.848 Y103.155 E10.32852
G1 X146.136 Y104.919 E10.38797
G1 X146.236 Y105.655 E10.41267
G1 X146.403 Y107.445 E10.47247
G1 X146.452 Y108.234 E10.49876
G1 X146.492 Y109.992 E10.55724
G1 X146.487 Y110.755 E10.58262
G1 X146.406 Y112.52 E10.64139
G1 X146.315 Y113.593 E10.6772
G1 X146.152 Y114.976 E10.72352
G1 X145.99 Y116.09 E10.76096
G1 X145.878 Y116.706 E10.78179
G1 X145.583 Y118.1 E10.82918
G1 X145.468 Y118.589 E10.84589
G1 X145.044 Y120.186 E10.90084
G1 X144.795 Y120.998 E10.92909
G1 X144.351 Y122.314 E10.97529
G1 X144.104 Y122.99 E10.99922
G1 X143.959 Y123.357 E11.01235
G1 X143.27 Y124.997 E11.07151
G1 X142.941 Y125.701 E11.09736
G1 X142.372 Y126.843 E11.1398
G1 X142.035 Y127.483 E11.16385
G1 X141.812 Y127.879 E11.17897
G1 X141.083 Y129.115 E11.2267
G1 X140.667 Y129.781 E11.25281
G1 X139.773 Y131.094 E11.30565
G1 X138.764 Y132.459 E11.3621
G1 X138.409 Y132.908 E11.38114
G1 X137.723 Y133.729 E11.41673
G1 X137.42 Y134.076 E11.43205
G1 X136.206 Y135.396 E11.4917
G1 X135.671 Y135.934 E11.51693
G1 X134.545 Y137.004 E11.56859
G1 X133.859 Y137.609 E11.59902
G1 X132.755 Y138.525 E11.64673
G1 X131.874 Y139.207 E11.68378
G1 X130.633 Y140.096 E11.73456
G1 X129.808 Y140.644 E11.7675
G1 X128.753 Y141.3 E11.80882
G1 X128.051 Y141.713 E11.83591
G1 X127.686 Y141.915 E11.84978
G1 X126.145 Y142.724 E11.90767
G1 X125.158 Y143.197 E11.94407
G1 X124.647 Y143.423 E11.96266
G1 X123.503 Y143.898 E12.00386
G1 X123.088 Y144.059 E12.01866
G1 X121.827 Y144.516 E12.06327
G1 X120.707 Y144.88 E12.10244
G1 X119.026 Y145.354 E12.16053
G1 X118.293 Y145.53 E12.18561
G1 X116.894 Y145.828 E12.23318
G1 X116.148 Y145.967 E12.25842
G1 X114.506 Y146.205 E12.3136
G1 X113.726 Y146.296 E12.33972
G1 X113.323 Y146.333 E12.35318
G1 X111.53 Y146.455 E12.41296
G1 X110.708 Y146.484 E12.44031
G1 X110.125 Y146.49 E12.4597
G1 X108.57 Y146.461 E12.51143
G1 X108.035 Y146.437 E12.52925
G1 X106.947 Y146.357 E12.56553
G1 X105.729 Y146.232 E12.60625
G1 X104.158 Y146.014 E12.65901
G1 X103.3 Y145.862 E12.68799
G1 X101.966 Y145.586 E12.7333
G1 X101.187 Y145.404 E12.7599
G1 X100.818 Y145.308 E12.77259
G1 X99.225 Y144.857 E12.82765
G1 X98.415 Y144.594 E12.85598
G1 X97.148 Y144.143 E12.90071
G1 X96.01 Y143.699 E12.94134
G1 X95.489 Y143.476 E12.96019
G1 X94.242 Y142.903 E13.00583
G1 X93.78 Y142.677 E13.02294
G1 X92.506 Y142.013 E13.07072
G1 X91.51 Y141.455 E13.10869
G1 X91.12 Y141.222 E13.1238
G1 X90.221 Y140.652 E13.15921
G1 X89.227 Y139.984 E13.19904
G1 X88.158 Y139.217 E13.2428
G1 X87.381 Y138.619 E13.27541
G1 X86.07 Y137.536 E13.33197
G1 X85.451 Y136.994 E13.35933
G1 X85.001 Y136.576 E13.37976
G1 X84.024 Y135.613 E13.42539
G1 X83.687 Y135.263 E13.44155
G1 X82.738 Y134.236 E13.48806
G1 X82.189 Y133.608 E13.5158
G1 X81.118 Y132.282 E13.57249
G1 X80.642 Y131.653 E13.59873
G1 X79.663 Y130.253 E13.65555
G1 X79.23 Y129.595 E13.68174
G1 X78.324 Y128.087 E13.74026
G1 X77.765 Y127.074 E13.77874
G1 X77.146 Y125.849 E13.82439
G1 X76.675 Y124.83 E13.86173
G1 X76.017 Y123.264 E13.91822
G1 X75.737 Y122.516 E13.94479
G1 X75.261 Y121.123 E13.99375
G1 X74.938 Y120.06 E14.0307
G1 X74.586 Y118.736 E14.07627
G1 X74.411 Y117.998 E14.10149
G1 X74.066 Y116.261 E14.16039
G1 X73.939 Y115.499 E14.18609
G1 X73.72 Y113.769 E14.24409
G1 X73.624 Y112.691 E14.28008
G1 X73.537 Y110.979 E14.3371
G1 X73.524 Y109.754 E14.37785
G1 X73.549 Y108.624 E14.41544
G1 X73.599 Y107.642 E14.44814
G1 X73.719 Y106.237 E14.49504
G1 X73.852 Y105.124 E14.53232
G1 X74.066 Y103.734 E14.5791
G1 X74.195 Y103.018 E14.6033
G1 X74.275 Y102.637 E14.61625
G1 X74.677 Y100.895 E14.67571
G1 X74.864 Y100.208 E14.69939
G1 X75.378 Y98.511 E14.75836
G1 X75.617 Y97.821 E14.78265
G1 X76.088 Y96.564 E14.8273
G1 X76.55 Y95.451 E14.86738
G1 X77.095 Y94.259 E14.91097
G1 X77.453 Y93.527 E14.93808
G1 X78.298 Y91.957 E14.99738
G1 X78.706 Y91.255 E15.02438
G1 X79.633 Y89.791 E15.08202
G1 X80.037 Y89.191 E15.10607
G1 X81.057 Y87.798 E15.1635
G1 X81.549 Y87.167 E15.19011
G1 X82.638 Y85.876 E15.24629
G1 X83.171 Y85.282 E15.27283
G1 X84.411 Y84.003 E15.33208
M204 S2000
G0 F7500 X84.689 Y84.29
M204 S500
G1 F1500 X85.281 Y83.717 E15.35948
G1 X86.448 Y82.67 E15.41163
G1 X87.054 Y82.155 E15.43808
G1 X88.425 Y81.083 E15.49596
G1 X89.103 Y80.586 E15.52392
G1 X90.496 Y79.647 E15.5798
G1 X91.165 Y79.224 E15.60612
G1 X92.656 Y78.362 E15.66341
G1 X93.339 Y77.994 E15.68921
G1 X94.83 Y77.263 E15.74444
G1 X95.556 Y76.934 E15.77095
G1 X97.213 Y76.261 E15.83044
G1 X98.234 Y75.891 E15.86656
G1 X99.57 Y75.459 E15.91326
G1 X100.27 Y75.252 E15.93754
G1 X101.899 Y74.839 E15.99343
G1 X102.327 Y74.741 E16.00803
G1 X103.423 Y74.516 E16.04525
G1 X103.957 Y74.422 E16.06328
G1 X105.087 Y74.252 E16.10129
G1 X105.539 Y74.194 E16.11645
G1 X107.258 Y74.019 E16.17392
G1 X107.961 Y73.974 E16.19734
G1 X109.301 Y73.923 E16.24195
G1 X110.08 Y73.914 E16.26786
G1 X111.782 Y73.96 E16.32449
G1 X112.597 Y74.007 E16.35164
G1 X114.261 Y74.168 E16.40724
G1 X115.3 Y74.301 E16.44208
G1 X116.347 Y74.472 E16.47737
G1 X117.013 Y74.602 E16.49994
G1 X118.19 Y74.85 E16.53994
G1 X118.749 Y74.985 E16.55907
G1 X119.877 Y75.29 E16.59793
G1 X120.321 Y75.42 E16.61332
G1 X121.663 Y75.849 E16.66018
G1 X122.646 Y76.201 E16.69491
G1 X124.162 Y76.805 E16.74919
G1 X124.912 Y77.138 E16.77648
G1 X126.173 Y77.74 E16.82295
G1 X127.215 Y78.282 E16.86202
G1 X128.305 Y78.899 E16.90368
G1 X129.013 Y79.324 E16.93114
G1 X129.352 Y79.539 E16.9445
G1 X130.517 Y80.311 E16.99098
G1 X131.377 Y80.924 E17.0261
G1 X132.774 Y82 E17.08475
G1 X133.346 Y82.478 E17.10955
G1 X134.417 Y83.424 E17.15707
G1 X134.933 Y83.903 E17.18049
G1 X136.302 Y85.284 E17.24517
G1 X136.898 Y85.937 E17.27457
G1 X138.017 Y87.246 E17.33185
G1 X138.518 Y87.879 E17.3587
G1 X139.519 Y89.233 E17.41471
G1 X139.967 Y89.889 E17.44113
G1 X140.72 Y91.057 E17.48735
G1 X141.279 Y91.995 E17.52367
G1 X141.976 Y93.263 E17.57179
G1 X142.453 Y94.205 E17.60691
G1 X142.999 Y95.384 E17.65012
G1 X143.314 Y96.112 E17.67651
G1 X143.943 Y97.736 E17.73443
G1 X144.205 Y98.476 E17.76054
G1 X144.703 Y100.086 E17.81659
G1 X144.916 Y100.852 E17.84304
G1 X145.298 Y102.47 E17.89833
G1 X145.454 Y103.226 E17.92401
G1 X145.525 Y103.622 E17.93739
G1 X145.74 Y104.972 E17.98285
G1 X145.838 Y105.699 E18.00725
G1 X145.881 Y106.091 E18.02037
G1 X146.004 Y107.47 E18.06642
G1 X146.052 Y108.243 E18.09218
G1 X146.092 Y109.989 E18.15026
G1 X146.087 Y110.737 E18.17514
G1 X146.007 Y112.487 E18.23341
G1 X145.918 Y113.546 E18.26876
G1 X145.756 Y114.918 E18.31471
G1 X145.596 Y116.019 E18.35171
G1 X145.487 Y116.623 E18.37212
G1 X145.194 Y118.008 E18.41921
G1 X145.081 Y118.486 E18.43555
G1 X144.657 Y120.083 E18.4905
G1 X144.416 Y120.87 E18.51788
G1 X143.975 Y122.177 E18.56376
G1 X143.732 Y122.843 E18.58734
G1 X143.59 Y123.202 E18.60018
G1 X142.907 Y124.828 E18.65883
G1 X142.583 Y125.523 E18.68434
G1 X142.018 Y126.657 E18.72648
G1 X141.686 Y127.287 E18.75016
G1 X141.468 Y127.676 E18.76499
G1 X140.744 Y128.903 E18.81238
G1 X140.336 Y129.556 E18.83799
G1 X139.451 Y130.856 E18.8903
G1 X138.45 Y132.211 E18.94633
G1 X138.102 Y132.652 E18.96501
G1 X137.422 Y133.466 E19.00029
G1 X137.126 Y133.805 E19.01526
G1 X135.922 Y135.114 E19.07441
G1 X135.396 Y135.644 E19.09925
G1 X134.28 Y136.704 E19.15044
G1 X133.603 Y137.301 E19.18046
G1 X132.51 Y138.209 E19.22772
G1 X131.641 Y138.882 E19.26428
G1 X130.412 Y139.763 E19.31457
G1 X129.597 Y140.304 E19.34711
