;FLAVOR:Marlin
;TIME:8148
;Filament used: 7.41352m
;Layer height: 0.2
;MINX:48.943
;MINY:55.836
;MINZ:0.2
;MAXX:171.06
;MAXY:164.167
;MAXZ:12
;TARGET_MACHINE.NAME:Creality Ender-3 S1 Pro
;Generated with Cura_SteamEngine 5.8.1
M82 ;absolute extrusion mode
; Ender 3 S1 Pro Start G-code
; M413 S0 ; Disable power loss recovery
G92 E0 ; Reset Extruder

; Prep surfaces before auto home for better accuracy
M140 S60
M104 S200

G28 ; Home all axes
G1 Z10.0 F3000 ; Move Z Axis up little to prevent scratching of Heat Bed
G1 X0 Y0

M190 S60
M109 S200

G1 X0.1 Y20 Z0.3 F5000.0 ; Move to start position
G1 X0.1 Y200.0 Z0.3 F1500.0 E15 ; Draw the first line
G1 X0.4 Y200.0 Z0.3 F5000.0 ; Move to side a little
G1 X0.4 Y20 Z0.3 F1500.0 E30 ; Draw the second line
G92 E0 ; Reset Extruder
G1 Z2.0 F3000 ; Move Z Axis up little to prevent scratching of Heat Bed
G1 X5 Y20 Z0.3 F5000.0 ; Move over to prevent blob squish

G92 E0
G92 E0
G1 F2400 E-0.8
;LAYER_COUNT:60
;LAYER:0
M107
M204 S2000
G0 F7500 X60.646 Y64.366 Z0.2
M204 S500
;TYPE:SKIRT
G1 F2400 E0
G1 F1500 X61.278 Y63.782 E0.02862
G1 X61.968 Y63.199 E0.05867
G1 X62.5 Y62.809 E0.08061
G1 X62.839 Y62.577 E0.09427
G1 X63.666 Y62.066 E0.1266
G1 X64.472 Y61.658 E0.15665
G1 X65.544 Y61.236 E0.19497
G1 X65.916 Y61.111 E0.20802
G1 X66.823 Y60.854 E0.23937
G1 X68.028 Y60.638 E0.28009
G1 X69.804 Y60.428 E0.33957
G1 X72.348 Y60.075 E0.425
G1 X74.849 Y59.658 E0.50933
G1 X77.313 Y59.175 E0.59284
G1 X79.759 Y58.622 E0.67625
G1 X82.177 Y58.006 E0.75924
G1 X84.632 Y57.304 E0.84417
G1 X87.492 Y56.404 E0.94389
G1 X88.423 Y56.158 E0.97592
G1 X89.716 Y55.954 E1.01945
G1 X90.432 Y55.886 E1.04338
G1 X91.412 Y55.836 E1.07601
G1 X92.514 Y55.887 E1.11271
G1 X93.277 Y55.975 E1.13825
G1 X94.14 Y56.104 E1.16727
G1 X96.241 Y56.447 E1.23808
G1 X98.699 Y56.779 E1.32057
G1 X101.227 Y57.045 E1.40512
G1 X103.698 Y57.238 E1.48756
G1 X106.262 Y57.364 E1.57294
G1 X108.765 Y57.417 E1.65621
G1 X111.26 Y57.398 E1.73919
G1 X113.828 Y57.306 E1.82466
G1 X116.332 Y57.146 E1.90811
G1 X118.767 Y56.92 E1.98945
G1 X121.409 Y56.599 E2.07797
G1 X122.613 Y56.442 E2.11835
G1 X123.432 Y56.368 E2.1457
G1 X123.879 Y56.344 E2.16059
G1 X124.916 Y56.339 E2.19508
G1 X125.441 Y56.362 E2.21256
G1 X126.618 Y56.479 E2.2519
G1 X127.156 Y56.561 E2.27
G1 X128.186 Y56.772 E2.30497
G1 X131.725 Y57.738 E2.42699
G1 X134.182 Y58.334 E2.51108
G1 X136.64 Y58.857 E2.59466
G1 X139.112 Y59.31 E2.67825
G1 X141.594 Y59.693 E2.76178
G1 X144.092 Y60.007 E2.84551
G1 X146.608 Y60.25 E2.92959
G1 X149.082 Y60.419 E3.01206
G1 X151.658 Y60.523 E3.09781
G1 X154.44 Y60.556 E3.19035
G1 X155.421 Y60.614 E3.22303
G1 X156.599 Y60.8 E3.2627
G1 X156.981 Y60.883 E3.2757
G1 X157.922 Y61.134 E3.30809
G1 X158.838 Y61.466 E3.3405
G1 X159.73 Y61.883 E3.37325
G1 X160.774 Y62.505 E3.41367
G1 X161.389 Y62.921 E3.43836
G1 X162.137 Y63.478 E3.46938
G1 X162.649 Y63.922 E3.49192
G1 X163.171 Y64.403 E3.51553
G1 X163.821 Y65.058 E3.54622
G1 X164.198 Y65.472 E3.56485
G1 X164.643 Y65.995 E3.58768
G1 X165.251 Y66.775 E3.62058
G1 X165.835 Y67.598 E3.65414
G1 X166.163 Y68.106 E3.67425
G1 X166.566 Y68.762 E3.69986
G1 X166.968 Y69.454 E3.72648
G1 X167.473 Y70.406 E3.76232
G1 X167.945 Y71.394 E3.79874
G1 X168.438 Y72.527 E3.83984
G1 X168.659 Y73.067 E3.85924
G1 X169.192 Y74.538 E3.91128
G1 X169.523 Y75.574 E3.94746
G1 X169.856 Y76.755 E3.98827
G1 X170.048 Y77.516 E4.01437
G1 X170.382 Y79.07 E4.06724
G1 X170.537 Y79.911 E4.09568
G1 X170.816 Y81.887 E4.16205
G1 X170.898 Y82.706 E4.18943
G1 X171.02 Y84.425 E4.24675
G1 X171.05 Y85.281 E4.27524
G1 X171.06 Y86.41 E4.31279
G1 X171.044 Y87.449 E4.34735
G1 X170.947 Y89.263 E4.40777
G1 X170.839 Y90.49 E4.44874
G1 X170.683 Y91.775 E4.49179
G1 X170.486 Y93.081 E4.53572
G1 X170.262 Y94.296 E4.57681
G1 X170.043 Y95.344 E4.61242
G1 X169.948 Y95.756 E4.62649
G1 X169.574 Y97.236 E4.67726
G1 X169.286 Y98.257 E4.71254
G1 X168.85 Y99.639 E4.76074
G1 X168.482 Y100.708 E4.79834
G1 X168.074 Y101.79 E4.8368
G1 X167.635 Y102.882 E4.87595
G1 X167.333 Y103.578 E4.90118
G1 X166.172 Y106.173 E4.99574
G1 X165.197 Y108.525 E5.08042
G1 X164.301 Y110.864 E5.16373
G1 X163.472 Y113.231 E5.24714
G1 X162.699 Y115.649 E5.33158
G1 X162.005 Y118.059 E5.41499
G1 X161.392 Y120.434 E5.49657
G1 X161.164 Y121.458 E5.53147
G1 X160.524 Y124.174 E5.62427
G1 X160.068 Y125.941 E5.68497
G1 X159.95 Y126.367 E5.69967
G1 X159.645 Y127.365 E5.73438
G1 X159.088 Y129.073 E5.79413
G1 X158.938 Y129.498 E5.80912
G1 X158.468 Y130.744 E5.85342
G1 X157.7 Y132.636 E5.92133
G1 X157.26 Y133.612 E5.95694
G1 X156.477 Y135.259 E6.01759
G1 X156.273 Y135.664 E6.03268
G1 X155.681 Y136.776 E6.07458
G1 X154.918 Y138.146 E6.12673
G1 X154.695 Y138.528 E6.14145
G1 X154.106 Y139.49 E6.17896
G1 X153.116 Y141.031 E6.23988
G1 X152.872 Y141.392 E6.25438
G1 X152.166 Y142.389 E6.29501
G1 X151.213 Y143.681 E6.3484
G1 X150.947 Y144.025 E6.36287
G1 X150.097 Y145.08 E6.40793
G1 X149.069 Y146.297 E6.46092
G1 X148.78 Y146.626 E6.47548
G1 X147.925 Y147.555 E6.51747
G1 X146.821 Y148.71 E6.57061
G1 X146.5 Y149.032 E6.58574
G1 X145.728 Y149.774 E6.62135
G1 X144.398 Y151.001 E6.68154
G1 X144.059 Y151.302 E6.69661
G1 X143.107 Y152.104 E6.73802
G1 X141.85 Y153.121 E6.79179
G1 X141.497 Y153.395 E6.80666
G1 X140.461 Y154.159 E6.84947
G1 X139.149 Y155.09 E6.90298
G1 X138.79 Y155.334 E6.91742
G1 X137.898 Y155.911 E6.95275
G1 X136.334 Y156.877 E7.01389
G1 X135.952 Y157.103 E7.02865
G1 X134.809 Y157.741 E7.07219
G1 X133.403 Y158.49 E7.12518
G1 X133.008 Y158.69 E7.1399
G1 X132.096 Y159.127 E7.17354
G1 X130.42 Y159.889 E7.23477
G1 X130.011 Y160.064 E7.24957
G1 X128.984 Y160.478 E7.2864
G1 X127.335 Y161.105 E7.34508
G1 X126.907 Y161.257 E7.36018
G1 X125.641 Y161.672 E7.40449
G1 X124.113 Y162.142 E7.45767
G1 X122.711 Y162.519 E7.50595
G1 X120.95 Y162.943 E7.5662
G1 X120.516 Y163.038 E7.58097
G1 X119.214 Y163.289 E7.62508
G1 X117.641 Y163.561 E7.67817
G1 X117.204 Y163.626 E7.69287
G1 X115.907 Y163.792 E7.73636
G1 X114.341 Y163.96 E7.78874
G1 X112.616 Y164.081 E7.84625
G1 X111.572 Y164.13 E7.88102
G1 X110.59 Y164.162 E7.9137
G1 X110.04 Y164.167 E7.93199
G1 X107.517 Y164.123 E8.01592
G1 X106.897 Y164.093 E8.03656
G1 X104.78 Y163.93 E8.10718
G1 X103.938 Y163.846 E8.13533
G1 X102.676 Y163.685 E8.17764
G1 X101.459 Y163.507 E8.21855
G1 X100.169 Y163.289 E8.26206
G1 X98.204 Y162.882 E8.32881
G1 X97.383 Y162.691 E8.35684
G1 X96.09 Y162.354 E8.40128
G1 X94.576 Y161.925 E8.45362
G1 X93.116 Y161.456 E8.50463
G1 X91.287 Y160.816 E8.56908
G1 X90.718 Y160.597 E8.58935
G1 X88.641 Y159.732 E8.66419
G1 X87.783 Y159.349 E8.69544
G1 X86.955 Y158.949 E8.72602
G1 X85.364 Y158.15 E8.78524
G1 X84.969 Y157.94 E8.80012
G1 X83.843 Y157.31 E8.84303
G1 X82.441 Y156.488 E8.89709
G1 X82.076 Y156.263 E8.91135
G1 X80.99 Y155.562 E8.95434
G1 X79.351 Y154.446 E9.02029
G1 X78.229 Y153.616 E9.06671
G1 X76.982 Y152.652 E9.11913
G1 X76.647 Y152.382 E9.13344
G1 X75.689 Y151.573 E9.17515
G1 X74.492 Y150.521 E9.22815
G1 X74.168 Y150.224 E9.24277
G1 X73.361 Y149.453 E9.27989
G1 X72.09 Y148.187 E9.33956
G1 X71.794 Y147.88 E9.35374
G1 X71.092 Y147.12 E9.38815
G1 X69.876 Y145.742 E9.44928
G1 X69.594 Y145.41 E9.46377
G1 X68.893 Y144.544 E9.50082
G1 X67.798 Y143.132 E9.56025
G1 X67.544 Y142.789 E9.57445
G1 X66.753 Y141.675 E9.61989
G1 X65.858 Y140.347 E9.67316
G1 X65.628 Y139.992 E9.68722
G1 X64.992 Y138.958 E9.7276
G1 X64.168 Y137.557 E9.78166
G1 X63.955 Y137.177 E9.79615
G1 X63.331 Y136.003 E9.84037
G1 X62.616 Y134.586 E9.89316
G1 X62.427 Y134.191 E9.90772
G1 X61.884 Y132.987 E9.95165
G1 X61.255 Y131.511 E10.00502
G1 X61.095 Y131.111 E10.01934
G1 X60.651 Y129.935 E10.06115
G1 X60.104 Y128.391 E10.11563
G1 X59.668 Y127.004 E10.16399
G1 X59.171 Y125.262 E10.22424
G1 X59.057 Y124.826 E10.23923
G1 X58.749 Y123.532 E10.28347
G1 X58.416 Y121.996 E10.33575
G1 X58.332 Y121.557 E10.35061
G1 X58.059 Y119.979 E10.40388
G1 X57.578 Y117.419 E10.49051
G1 X57.049 Y114.987 E10.57329
G1 X56.439 Y112.519 E10.65785
G1 X55.77 Y110.106 E10.74113
G1 X55.026 Y107.697 E10.82499
G1 X54.223 Y105.33 E10.90813
G1 X53.336 Y102.938 E10.99298
G1 X52.395 Y100.61 E11.07649
G1 X51.314 Y98.06 E11.16861
G1 X50.996 Y97.259 E11.19728
G1 X50.521 Y95.927 E11.24431
G1 X50.202 Y94.95 E11.2785
G1 X49.996 Y94.246 E11.30289
G1 X49.598 Y92.656 E11.35741
G1 X49.463 Y92.027 E11.3788
G1 X49.307 Y91.155 E11.40827
G1 X49.195 Y90.448 E11.43208
G1 X49.117 Y89.825 E11.45296
G1 X49.008 Y88.66 E11.49188
G1 X48.964 Y87.982 E11.51447
G1 X48.943 Y87.276 E11.53797
G1 X48.949 Y86.358 E11.5685
G1 X48.975 Y85.593 E11.59396
G1 X49.034 Y84.795 E11.62057
G1 X49.132 Y83.923 E11.64976
G1 X49.231 Y83.209 E11.67373
G1 X49.364 Y82.453 E11.69926
G1 X49.554 Y81.594 E11.72852
G1 X49.735 Y80.871 E11.75331
G1 X49.885 Y80.33 E11.77199
G1 X50.119 Y79.598 E11.79755
G1 X50.386 Y78.838 E11.82434
G1 X50.643 Y78.183 E11.84774
G1 X51.119 Y77.087 E11.88748
G1 X51.385 Y76.526 E11.90813
G1 X51.69 Y75.929 E11.93043
G1 X52.131 Y75.128 E11.96084
G1 X52.369 Y74.719 E11.97658
G1 X53.004 Y73.689 E12.01683
G1 X53.368 Y73.135 E12.03888
G1 X53.675 Y72.69 E12.05686
G1 X54.898 Y71.027 E12.12551
G1 X55.685 Y70.026 E12.16787
G1 X57.211 Y68.167 E12.24786
G1 X58.691 Y66.435 E12.32363
G1 X59.323 Y65.734 E12.35503
G1 X60.132 Y64.875 E12.39427
G1 X60.646 Y64.366 E12.41833
M204 S2000
G0 F7500 X60.917 Y64.66
M204 S500
G1 F1500 X61.536 Y64.088 E12.44636
G1 X62.226 Y63.505 E12.47641
G1 X62.726 Y63.139 E12.49702
G1 X63.05 Y62.917 E12.51008
G1 X63.847 Y62.423 E12.54127
G1 X64.653 Y62.015 E12.57132
G1 X65.671 Y61.615 E12.60769
G1 X66.026 Y61.496 E12.62015
G1 X66.894 Y61.248 E12.65017
G1 X68.099 Y61.032 E12.69089
G1 X69.856 Y60.824 E12.74974
G1 X72.414 Y60.47 E12.83563
G1 X74.92 Y60.052 E12.92013
G1 X77.39 Y59.568 E13.00384
G1 X79.858 Y59.01 E13.088
G1 X82.281 Y58.393 E13.17116
G1 X84.742 Y57.689 E13.2563
G1 X87.594 Y56.791 E13.35575
G1 X88.525 Y56.545 E13.38777
G1 X89.754 Y56.352 E13.42915
G1 X90.453 Y56.285 E13.45251
G1 X91.394 Y56.236 E13.48385
G1 X92.496 Y56.287 E13.52054
G1 X93.218 Y56.371 E13.54472
G1 X94.076 Y56.499 E13.57357
G1 X96.177 Y56.842 E13.64437
G1 X98.657 Y57.177 E13.72761
G1 X101.19 Y57.444 E13.81232
G1 X103.678 Y57.638 E13.89532
G1 X106.242 Y57.764 E13.98071
G1 X108.76 Y57.817 E14.06447
G1 X111.274 Y57.798 E14.14809
G1 X113.842 Y57.706 E14.23356
G1 X116.358 Y57.545 E14.31741
G1 X118.816 Y57.317 E14.39952
G1 X121.461 Y56.996 E14.48814
G1 X122.665 Y56.839 E14.52852
G1 X123.454 Y56.767 E14.55487
G1 X123.881 Y56.744 E14.56909
G1 X124.898 Y56.739 E14.60292
G1 X125.423 Y56.762 E14.6204
G1 X126.558 Y56.874 E14.65833
G1 X127.076 Y56.953 E14.67576
G1 X128.081 Y57.158 E14.70987
G1 X131.631 Y58.127 E14.83227
G1 X134.088 Y58.723 E14.91636
G1 X136.556 Y59.248 E15.00028
G1 X139.051 Y59.705 E15.08465
G1 X141.544 Y60.09 E15.16855
G1 X144.042 Y60.404 E15.25228
G1 X146.579 Y60.649 E15.33706
G1 X149.066 Y60.819 E15.41997
G1 X151.642 Y60.923 E15.50572
G1 X154.417 Y60.955 E15.59802
G1 X155.359 Y61.009 E15.6294
G1 X156.514 Y61.191 E15.66829
G1 X156.879 Y61.27 E15.68071
G1 X157.786 Y61.51 E15.71192
G1 X158.669 Y61.829 E15.74314
G1 X159.525 Y62.227 E15.77454
G1 X160.569 Y62.849 E15.81496
G1 X161.15 Y63.242 E15.83829
G1 X161.875 Y63.781 E15.86834
G1 X162.378 Y64.216 E15.89046
G1 X162.887 Y64.685 E15.91348
G1 X163.525 Y65.327 E15.94358
G1 X163.894 Y65.732 E15.9618
G1 X164.328 Y66.241 E15.98405
G1 X164.925 Y67.006 E16.01633
G1 X165.499 Y67.815 E16.04932
G1 X165.822 Y68.315 E16.06912
G1 X166.22 Y68.963 E16.09441
G1 X166.615 Y69.642 E16.12054
G1 X167.112 Y70.578 E16.15578
G1 X167.578 Y71.554 E16.19176
G1 X168.068 Y72.679 E16.23257
G1 X168.283 Y73.203 E16.25141
G1 X168.811 Y74.66 E16.30295
G1 X169.138 Y75.683 E16.33867
G1 X169.468 Y76.853 E16.37911
G1 X169.657 Y77.6 E16.40473
G1 X169.989 Y79.143 E16.45723
G1 X170.141 Y79.967 E16.4851
G1 X170.418 Y81.927 E16.55093
G1 X170.499 Y82.734 E16.57791
G1 X170.62 Y84.439 E16.63476
G1 X170.65 Y85.285 E16.66292
G1 X170.66 Y86.404 E16.70014
G1 X170.645 Y87.428 E16.7342
G1 X170.549 Y89.228 E16.79415
G1 X170.442 Y90.442 E16.83469
G1 X170.287 Y91.715 E16.87734
G1 X170.09 Y93.021 E16.92127
G1 X169.87 Y94.214 E16.96162
G1 X169.653 Y95.254 E16.99695
G1 X169.56 Y95.658 E17.01074
G1 X169.189 Y97.127 E17.06113
G1 X168.904 Y98.137 E17.09604
G1 X168.472 Y99.509 E17.14388
G1 X168.108 Y100.567 E17.18109
G1 X167.703 Y101.641 E17.21927
G1 X167.268 Y102.723 E17.25806
G1 X166.968 Y103.415 E17.28314
G1 X165.807 Y106.01 E17.3777
G1 X164.823 Y108.382 E17.46311
G1 X163.927 Y110.721 E17.54642
G1 X163.094 Y113.099 E17.63022
G1 X162.318 Y115.527 E17.715
G1 X161.621 Y117.948 E17.7988
G1 X161.001 Y120.347 E17.88121
G1 X160.775 Y121.366 E17.91592
G1 X160.137 Y124.074 E18.00846
G1 X159.683 Y125.834 E18.06891
G1 X159.567 Y126.25 E18.08328
G1 X159.265 Y127.241 E18.11773
G1 X158.711 Y128.94 E18.17717
G1 X158.564 Y129.357 E18.19188
G1 X158.097 Y130.595 E18.23589
G1 X157.502 Y132.077 E18.289
G1 X157.335 Y132.472 E18.30327
G1 X156.899 Y133.44 E18.33858
G1 X156.12 Y135.079 E18.39893
G1 X155.92 Y135.476 E18.41372
G1 X155.332 Y136.581 E18.45535
G1 X154.573 Y137.944 E18.50724
G1 X154.354 Y138.319 E18.52168
G1 X153.769 Y139.274 E18.55893
G1 X152.784 Y140.807 E18.61954
G1 X152.545 Y141.161 E18.63374
G1 X151.844 Y142.152 E18.67412
G1 X150.896 Y143.437 E18.72723
G1 X150.636 Y143.774 E18.74139
G1 X149.791 Y144.822 E18.78616
G1 X148.769 Y146.033 E18.83887
G1 X148.486 Y146.355 E18.85312
G1 X147.636 Y147.279 E18.89488
G1 X146.538 Y148.428 E18.94774
G1 X146.223 Y148.744 E18.96258
G1 X145.457 Y149.48 E18.99791
G1 X144.132 Y150.702 E19.05786
G1 X143.801 Y150.996 E19.07259
G1 X142.855 Y151.793 E19.11373
G1 X141.605 Y152.805 E19.16722
G1 X141.259 Y153.073 E19.18178
G1 X140.23 Y153.833 E19.22433
G1 X138.924 Y154.759 E19.27758
G1 X138.573 Y154.998 E19.2917
G1 X137.688 Y155.571 E19.32677
G1 X136.131 Y156.533 E19.38764
G1 X135.757 Y156.754 E19.40209
G1 X134.621 Y157.388 E19.44536
G1 X133.222 Y158.133 E19.49808
G1 X132.835 Y158.329 E19.5125
G1 X131.93 Y158.763 E19.54589
G1 X130.263 Y159.521 E19.60679
G1 X129.861 Y159.693 E19.62134
G1 X128.842 Y160.104 E19.65788
G1 X127.201 Y160.728 E19.71627
G1 X126.782 Y160.877 E19.73107
G1 X125.524 Y161.29 E19.7751
G1 X124.003 Y161.757 E19.82802
G1 X123.599 Y161.872 E19.84199
G1 X122.617 Y162.13 E19.87576
G1 X120.864 Y162.552 E19.93573
G1 X120.44 Y162.645 E19.95017
G1 X119.146 Y162.895 E19.99401
G1 X117.582 Y163.165 E20.04679
G1 X117.153 Y163.229 E20.06122
G1 X115.864 Y163.394 E20.10444
G1 X114.307 Y163.561 E20.15653
G1 X113.883 Y163.597 E20.17068
G1 X112.597 Y163.681 E20.21354
G1 X111.558 Y163.73 E20.24814
G1 X110.582 Y163.763 E20.28062
G1 X110.047 Y163.767 E20.29841
G1 X107.536 Y163.723 E20.38194
G1 X106.928 Y163.694 E20.40219
G1 X104.82 Y163.532 E20.47251
G1 X103.989 Y163.449 E20.50028
G1 X102.734 Y163.289 E20.54236
G1 X101.526 Y163.113 E20.58297
G1 X100.25 Y162.897 E20.62601
G1 X98.294 Y162.492 E20.69245
G1 X97.484 Y162.304 E20.7201
G1 X96.199 Y161.969 E20.76427
G1 X94.698 Y161.544 E20.81616
G1 X93.248 Y161.078 E20.86681
G1 X91.419 Y160.438 E20.93126
G1 X90.872 Y160.228 E20.95075
G1 X88.804 Y159.367 E21.02526
G1 X87.957 Y158.989 E21.05611
G1 X87.135 Y158.592 E21.08647
G1 X85.552 Y157.797 E21.14538
G1 X85.164 Y157.591 E21.16
G1 X84.045 Y156.965 E21.20264
G1 X82.651 Y156.148 E21.25638
G1 X82.293 Y155.927 E21.27038
G1 X81.215 Y155.231 E21.31305
G1 X79.589 Y154.124 E21.37848
G1 X78.474 Y153.3 E21.42459
G1 X77.233 Y152.34 E21.47678
G1 X76.905 Y152.076 E21.49078
G1 X75.953 Y151.273 E21.5322
G1 X74.762 Y150.226 E21.58495
G1 X74.444 Y149.935 E21.59928
G1 X73.643 Y149.17 E21.63612
G1 X72.378 Y147.909 E21.69553
G1 X72.088 Y147.608 E21.70943
G1 X71.392 Y146.855 E21.74354
G1 X70.181 Y145.483 E21.8044
G1 X69.905 Y145.158 E21.81858
G1 X69.209 Y144.299 E21.85536
G1 X68.119 Y142.894 E21.9145
G1 X67.87 Y142.558 E21.92841
G1 X67.085 Y141.451 E21.97355
G1 X66.194 Y140.13 E22.02654
G1 X65.969 Y139.782 E22.04033
G1 X65.337 Y138.755 E22.08043
G1 X64.517 Y137.361 E22.13423
G1 X64.308 Y136.989 E22.14842
G1 X63.688 Y135.823 E22.19234
G1 X62.977 Y134.413 E22.24486
G1 X62.792 Y134.027 E22.2591
G1 X62.252 Y132.83 E22.30278
G1 X61.626 Y131.363 E22.35582
G1 X61.469 Y130.97 E22.3699
