;FLAVOR:Marlin
;TIME:5943
;Filament used: 4.11417m
;Layer height: 0.2
;MINX:49.011
;MINY:62.575
;MINZ:0.2
;MAXX:171.444
;MAXY:157.339
;MAXZ:15.8
;TARGET_MACHINE.NAME:Creality Ender-3 S1 Pro
;Generated with Cura_SteamEngine 5.8.1
M82 ;absolute extrusion mode
; Ender 3 S1 Pro Start G-code
; M413 S0 ; Disable power loss recovery
G92 E0 ; Reset Extruder

; Prep surfaces before auto home for better accuracy
M140 S60
M104 S200

G28 ; Home all axes
G1 Z10.0 F3000 ; Move Z Axis up little to prevent scratching of Heat Bed
G1 X0 Y0

M190 S60
M109 S200

G1 X0.1 Y20 Z0.3 F5000.0 ; Move to start position
G1 X0.1 Y200.0 Z0.3 F1500.0 E15 ; Draw the first line
G1 X0.4 Y200.0 Z0.3 F5000.0 ; Move to side a little
G1 X0.4 Y20 Z0.3 F1500.0 E30 ; Draw the second line
G92 E0 ; Reset Extruder
G1 Z2.0 F3000 ; Move Z Axis up little to prevent scratching of Heat Bed
G1 X5 Y20 Z0.3 F5000.0 ; Move over to prevent blob squish

G92 E0
G92 E0
G1 F2400 E-0.8
;LAYER_COUNT:79
;LAYER:0
M107
M204 S2000
G0 F7500 X53.225 Y64.903 Z0.2
M204 S500
;TYPE:SKIRT
G1 F2400 E0
G1 F1500 X54.078 Y64.297 E0.0348
G1 X54.858 Y63.842 E0.06484
G1 X55.806 Y63.398 E0.09965
G1 X56.72 Y63.068 E0.13197
G1 X57.662 Y62.817 E0.1644
G1 X58.621 Y62.651 E0.19677
G1 X59.521 Y62.575 E0.22681
G1 X60.856 Y62.596 E0.27122
G1 X62.889 Y62.773 E0.33909
G1 X65.358 Y62.93 E0.42138
G1 X67.926 Y63.021 E0.50684
G1 X70.494 Y63.04 E0.59226
G1 X72.346 Y63.017 E0.65386
G1 X73.284 Y63.048 E0.68507
G1 X74.199 Y63.155 E0.71571
G1 X75.215 Y63.323 E0.74997
G1 X76.707 Y63.599 E0.80043
G1 X77.587 Y63.802 E0.83047
G1 X78.232 Y64 E0.85291
G1 X81.255 Y64.999 E0.9588
G1 X83.652 Y65.71 E1.04196
G1 X86.12 Y66.369 E1.12692
G1 X88.557 Y66.942 E1.21019
G1 X91.012 Y67.449 E1.29356
G1 X93.484 Y67.886 E1.37706
G1 X95.998 Y68.258 E1.46159
G1 X98.483 Y68.555 E1.54482
G1 X100.989 Y68.783 E1.62852
G1 X103.477 Y68.936 E1.71143
G1 X106.017 Y69.023 E1.79596
G1 X108.543 Y69.036 E1.87997
G1 X111.04 Y68.98 E1.96304
G1 X113.556 Y68.853 E2.04683
G1 X116.064 Y68.653 E2.13051
G1 X118.592 Y68.378 E2.21509
G1 X121.066 Y68.04 E2.29814
G1 X123.534 Y67.631 E2.38135
G1 X126.04 Y67.144 E2.46626
G1 X128.434 Y66.607 E2.54786
G1 X130.923 Y65.973 E2.63329
G1 X133.332 Y65.287 E2.7166
G1 X136.89 Y64.144 E2.84089
G1 X137.829 Y63.89 E2.87325
G1 X138.718 Y63.73 E2.90329
G1 X139.758 Y63.637 E2.93802
G1 X140.661 Y63.635 E2.96805
G1 X141.703 Y63.726 E3.00284
G1 X142.662 Y63.9 E3.03526
G1 X143.601 Y64.158 E3.06765
G1 X144.513 Y64.497 E3.10001
G1 X145.329 Y64.882 E3.13002
G1 X146.23 Y65.411 E3.16477
G1 X147.018 Y65.975 E3.197
G1 X147.638 Y66.5 E3.22402
G1 X148.127 Y66.955 E3.24624
G1 X153.834 Y72.517 E3.51129
G1 X154.458 Y73.143 E3.54069
G1 X155.112 Y73.865 E3.57309
G1 X155.699 Y74.64 E3.60542
G1 X156.217 Y75.465 E3.63782
G1 X156.66 Y76.333 E3.67024
G1 X157.024 Y77.236 E3.70262
G1 X157.288 Y78.1 E3.73267
G1 X157.503 Y79.122 E3.7674
G1 X157.618 Y80.077 E3.79939
G1 X157.646 Y80.701 E3.82017
G1 X157.661 Y81.603 E3.85017
G1 X157.741 Y84.165 E3.93543
G1 X157.889 Y86.66 E4.01856
G1 X158.112 Y89.189 E4.103
G1 X158.401 Y91.662 E4.18581
G1 X158.763 Y94.153 E4.26953
G1 X159.2 Y96.657 E4.35408
G1 X159.7 Y99.11 E4.43734
G1 X160.268 Y101.552 E4.52073
G1 X160.906 Y103.969 E4.60387
G1 X161.629 Y106.428 E4.68912
G1 X162.398 Y108.797 E4.77196
G1 X163.244 Y111.174 E4.85588
G1 X164.161 Y113.53 E4.93997
G1 X165.145 Y115.861 E5.02412
G1 X166.18 Y118.139 E5.10734
G1 X167.284 Y120.393 E5.19082
G1 X168.456 Y122.624 E5.27464
G1 X169.942 Y125.286 E5.37604
G1 X170.361 Y126.126 E5.40726
G1 X170.726 Y127.054 E5.44043
G1 X170.924 Y127.692 E5.46264
G1 X171.05 Y128.155 E5.4786
G1 X171.265 Y129.118 E5.51142
G1 X171.418 Y130.425 E5.55519
G1 X171.442 Y130.864 E5.56981
G1 X171.444 Y131.853 E5.60271
G1 X171.306 Y133.202 E5.64781
G1 X171.228 Y133.664 E5.66339
G1 X171.018 Y134.632 E5.69634
G1 X170.725 Y135.577 E5.72924
G1 X170.222 Y136.75 E5.77169
G1 X170.028 Y137.133 E5.78597
G1 X169.549 Y137.981 E5.81837
G1 X168.997 Y138.782 E5.85072
G1 X168.423 Y139.479 E5.88075
G1 X167.854 Y140.068 E5.90799
G1 X167.587 Y140.325 E5.92032
G1 X166.854 Y140.966 E5.9527
G1 X166.067 Y141.54 E5.9851
G1 X165.235 Y142.042 E6.01742
G1 X164.432 Y142.437 E6.04719
G1 X164.08 Y142.592 E6.05998
G1 X163.171 Y142.942 E6.09238
G1 X162.236 Y143.211 E6.12474
G1 X161.294 Y143.396 E6.15666
G1 X160.735 Y143.465 E6.1754
G1 X160.3 Y143.506 E6.18993
G1 X159.317 Y143.554 E6.22266
G1 X158.058 Y143.49 E6.26459
G1 X157.1 Y143.384 E6.29665
G1 X154.487 Y143.126 E6.38398
G1 X151.991 Y142.952 E6.4672
G1 X149.452 Y142.846 E6.55172
G1 X146.961 Y142.813 E6.63458
G1 X144.453 Y142.852 E6.71801
G1 X141.896 Y142.962 E6.80313
G1 X139.387 Y143.143 E6.8868
G1 X136.911 Y143.391 E6.96956
G1 X134.393 Y143.715 E7.054
G1 X131.913 Y144.107 E7.13751
G1 X129.463 Y144.564 E7.2204
G1 X126.949 Y145.108 E7.30595
G1 X124.566 Y145.695 E7.38758
G1 X122.115 Y146.371 E7.47215
G1 X119.707 Y147.111 E7.55593
G1 X117.332 Y147.915 E7.63933
G1 X114.935 Y148.803 E7.72435
G1 X112.647 Y149.725 E7.8064
G1 X110.298 Y150.749 E7.89162
G1 X108.02 Y151.818 E7.97532
G1 X105.798 Y152.941 E8.05813
G1 X103.563 Y154.15 E8.14264
G1 X101.744 Y155.197 E8.21245
G1 X100.654 Y155.837 E8.25449
G1 X99.792 Y156.291 E8.28689
G1 X98.893 Y156.666 E8.31929
G1 X97.965 Y156.96 E8.35167
G1 X97.016 Y157.17 E8.38399
G1 X96.048 Y157.299 E8.41647
G1 X95.075 Y157.339 E8.44886
G1 X94.103 Y157.293 E8.48123
G1 X93.208 Y157.174 E8.51126
G1 X92.189 Y156.944 E8.546
G1 X91.261 Y156.644 E8.57844
G1 X90.365 Y156.264 E8.61081
G1 X89.507 Y155.806 E8.64316
G1 X88.69 Y155.274 E8.67559
G1 X87.979 Y154.717 E8.70563
G1 X87.217 Y154.004 E8.74034
G1 X86.592 Y153.303 E8.77157
G1 X85.99 Y152.494 E8.80511
G1 X85.497 Y151.694 E8.83637
G1 X85.048 Y150.79 E8.86994
G1 X84.689 Y149.871 E8.90276
G1 X84.356 Y148.668 E8.94427
G1 X84.176 Y147.822 E8.97304
G1 X83.931 Y146.572 E9.01541
G1 X83.369 Y144.084 E9.10024
G1 X82.756 Y141.706 E9.18192
G1 X82.059 Y139.269 E9.26623
G1 X81.296 Y136.867 E9.35005
G1 X80.465 Y134.486 E9.43393
G1 X79.573 Y132.139 E9.51744
G1 X78.629 Y129.863 E9.59939
G1 X77.02 Y126.326 E9.72863
G1 X76.063 Y124.318 E9.80261
G1 X74.906 Y121.986 E9.8892
G1 X73.737 Y119.793 E9.97185
G1 X72.486 Y117.593 E10.05603
G1 X71.18 Y115.442 E10.13973
G1 X69.788 Y113.287 E10.22505
G1 X68.739 Y111.75 E10.28695
G1 X67.643 Y110.178 E10.35068
G1 X66.925 Y109.114 E10.39338
G1 X65.762 Y107.32 E10.46449
G1 X65.217 Y106.445 E10.49877
G1 X64.233 Y104.812 E10.56219
G1 X63.399 Y103.346 E10.61828
G1 X62.727 Y102.105 E10.66522
G1 X61.968 Y100.638 E10.72016
G1 X61.284 Y99.242 E10.77186
G1 X60.716 Y98.029 E10.81641
G1 X60.083 Y96.6 E10.86839
G1 X58.893 Y93.852 E10.968
G1 X57.829 Y91.582 E11.05138
G1 X56.705 Y89.35 E11.1345
G1 X55.504 Y87.127 E11.21853
G1 X54.246 Y84.945 E11.30231
G1 X52.921 Y82.791 E11.38642
G1 X51.509 Y80.634 E11.47216
G1 X50.881 Y79.706 E11.50943
G1 X50.374 Y78.876 E11.54178
G1 X49.957 Y78.036 E11.57297
G1 X49.588 Y77.095 E11.60659
G1 X49.334 Y76.229 E11.63661
G1 X49.129 Y75.203 E11.67141
G1 X49.027 Y74.235 E11.70378
G1 X49.011 Y73.262 E11.73615
G1 X49.081 Y72.291 E11.76853
G1 X49.236 Y71.329 E11.80094
G1 X49.476 Y70.385 E11.83333
G1 X49.785 Y69.499 E11.86454
G1 X50.202 Y68.579 E11.89814
G1 X50.681 Y67.731 E11.93053
G1 X51.233 Y66.93 E11.96289
G1 X51.854 Y66.179 E11.9953
G1 X52.538 Y65.489 E12.02761
G1 X53.225 Y64.903 E12.05764
M204 S2000
G0 F7500 X53.485 Y65.207
M204 S500
G1 F1500 X54.28 Y64.643 E12.09006
G1 X55.06 Y64.188 E12.1201
G1 X55.943 Y63.774 E12.15254
G1 X56.824 Y63.454 E12.18371
G1 X57.731 Y63.211 E12.21494
G1 X58.655 Y63.05 E12.24614
G1 X59.555 Y62.974 E12.27618
G1 X60.825 Y62.995 E12.31842
G1 X61.54 Y63.051 E12.34228
G1 X62.864 Y63.172 E12.3865
G1 X65.344 Y63.33 E12.46915
G1 X67.912 Y63.421 E12.55462
G1 X70.496 Y63.44 E12.64056
G1 X72.333 Y63.417 E12.70167
G1 X73.271 Y63.448 E12.73288
G1 X74.134 Y63.55 E12.76178
G1 X75.142 Y63.716 E12.79576
G1 X76.617 Y63.989 E12.84565
G1 X77.497 Y64.192 E12.87569
G1 X78.106 Y64.38 E12.89689
G1 X81.141 Y65.383 E13.0032
G1 X83.538 Y66.093 E13.08635
G1 X86.028 Y66.758 E13.17207
G1 X88.476 Y67.334 E13.25572
G1 X90.933 Y67.841 E13.33916
G1 X93.425 Y68.282 E13.42333
G1 X95.939 Y68.654 E13.50786
G1 X98.436 Y68.952 E13.5915
G1 X100.964 Y69.182 E13.67593
G1 X103.463 Y69.336 E13.7592
G1 X106.003 Y69.423 E13.84373
G1 X108.55 Y69.436 E13.92845
G1 X111.049 Y69.38 E14.01158
G1 X113.588 Y69.251 E14.09614
G1 X116.103 Y69.051 E14.18005
G1 X118.635 Y68.776 E14.26476
G1 X121.131 Y68.435 E14.34855
G1 X123.604 Y68.025 E14.43193
G1 X126.116 Y67.537 E14.51704
G1 X128.533 Y66.995 E14.59942
G1 X131.022 Y66.361 E14.68485
G1 X133.442 Y65.672 E14.76854
G1 X136.995 Y64.53 E14.89267
G1 X137.9 Y64.284 E14.92386
G1 X138.789 Y64.124 E14.9539
G1 X139.759 Y64.037 E14.9863
G1 X140.662 Y64.035 E15.01633
G1 X141.632 Y64.12 E15.04872
G1 X142.557 Y64.286 E15.07997
G1 X143.462 Y64.533 E15.11117
G1 X144.342 Y64.859 E15.14239
G1 X145.158 Y65.244 E15.1724
G1 X145.998 Y65.737 E15.20479
G1 X146.76 Y66.281 E15.23593
G1 X147.366 Y66.793 E15.26232
G1 X147.848 Y67.241 E15.2842
G1 X153.551 Y72.8 E15.54909
G1 X154.162 Y73.412 E15.57785
G1 X154.794 Y74.107 E15.6091
G1 X155.361 Y74.853 E15.64026
G1 X155.861 Y75.647 E15.67147
G1 X156.289 Y76.483 E15.70271
G1 X156.641 Y77.353 E15.73393
G1 X156.905 Y78.217 E15.76397
G1 X157.106 Y79.17 E15.79637
G1 X157.218 Y80.095 E15.82736
G1 X157.246 Y80.708 E15.84777
G1 X157.261 Y81.615 E15.87794
G1 X157.341 Y84.177 E15.96319
G1 X157.491 Y86.695 E16.04709
G1 X157.715 Y89.235 E16.1319
G1 X158.005 Y91.72 E16.21511
G1 X158.369 Y94.222 E16.2992
G1 X158.808 Y96.737 E16.38412
G1 X159.31 Y99.201 E16.46775
G1 X159.881 Y101.654 E16.55152
G1 X160.522 Y104.082 E16.63505
G1 X161.245 Y106.541 E16.72029
G1 X162.021 Y108.931 E16.80387
G1 X162.871 Y111.319 E16.88818
G1 X163.792 Y113.686 E16.97265
G1 X164.776 Y116.017 E17.05681
G1 X165.821 Y118.315 E17.14077
G1 X166.93 Y120.579 E17.22462
G1 X168.107 Y122.819 E17.30878
G1 X169.584 Y125.465 E17.40957
G1 X170.003 Y126.305 E17.44079
G1 X170.344 Y127.173 E17.47181
G1 X170.538 Y127.798 E17.49358
G1 X170.66 Y128.243 E17.50892
G1 X170.868 Y129.165 E17.54036
G1 X171.021 Y130.472 E17.58413
G1 X171.042 Y130.866 E17.59725
G1 X171.046 Y131.812 E17.62872
G1 X170.911 Y133.136 E17.67298
G1 X170.837 Y133.58 E17.68795
G1 X170.636 Y134.514 E17.71973
G1 X170.357 Y135.419 E17.75123
G1 X169.854 Y136.592 E17.79368
G1 X169.68 Y136.937 E17.80653
G1 X169.219 Y137.755 E17.83776
G1 X168.688 Y138.528 E17.86895
G1 X168.114 Y139.225 E17.89898
G1 X167.577 Y139.78 E17.92467
G1 X167.323 Y140.024 E17.93638
G1 X166.618 Y140.643 E17.96759
G1 X165.86 Y141.198 E17.99883
G1 X165.058 Y141.683 E18.03
G1 X164.271 Y142.071 E18.05919
G1 X163.935 Y142.219 E18.0714
G1 X163.06 Y142.558 E18.10261
G1 X162.159 Y142.819 E18.13381
G1 X161.245 Y142.999 E18.16479
G1 X160.697 Y143.067 E18.18316
G1 X160.28 Y143.107 E18.19709
G1 X159.337 Y143.155 E18.2285
G1 X158.102 Y143.092 E18.26963
G1 X157.144 Y142.986 E18.30169
G1 X154.518 Y142.727 E18.38945
G1 X152.008 Y142.552 E18.47314
G1 X149.469 Y142.446 E18.55766
G1 X146.96 Y142.413 E18.64111
G1 X144.436 Y142.452 E18.72507
G1 X141.879 Y142.562 E18.8102
G1 X139.354 Y142.744 E18.8944
G1 X136.86 Y142.994 E18.97776
G1 X134.342 Y143.318 E19.0622
G1 X131.851 Y143.712 E19.14608
G1 X129.378 Y144.173 E19.22975
G1 X126.864 Y144.717 E19.3153
G1 X124.46 Y145.309 E19.39765
G1 X122.009 Y145.985 E19.48221
G1 X119.579 Y146.732 E19.56677
G1 X117.204 Y147.536 E19.65017
G1 X114.796 Y148.428 E19.73557
G1 X112.487 Y149.358 E19.81837
G1 X110.138 Y150.382 E19.9036
G1 X107.85 Y151.456 E19.98766
G1 X105.608 Y152.589 E20.07121
G1 X103.363 Y153.803 E20.1561
G1 X101.544 Y154.85 E20.22591
G1 X100.467 Y155.483 E20.26746
G1 X99.637 Y155.922 E20.29869
G1 X98.771 Y156.285 E20.32992
G1 X97.878 Y156.57 E20.36109
G1 X96.963 Y156.774 E20.39227
G1 X96.031 Y156.899 E20.42355
G1 X95.093 Y156.939 E20.45478
G1 X94.156 Y156.896 E20.48597
G1 X93.261 Y156.777 E20.516
G1 X92.311 Y156.563 E20.54839
G1 X91.417 Y156.276 E20.57962
G1 X90.553 Y155.911 E20.61082
G1 X89.725 Y155.471 E20.642
G1 X88.937 Y154.959 E20.67326
G1 X88.226 Y154.402 E20.7033
G1 X87.515 Y153.737 E20.73568
G1 X86.913 Y153.064 E20.76571
G1 X86.331 Y152.284 E20.79808
G1 X85.838 Y151.484 E20.82934
G1 X85.42 Y150.644 E20.86054
G1 X85.075 Y149.764 E20.89198
G1 X84.742 Y148.561 E20.9335
G1 X84.569 Y147.745 E20.96124
G1 X84.324 Y146.495 E21.00361
G1 X83.759 Y143.996 E21.08882
G1 X83.141 Y141.596 E21.17125
G1 X82.444 Y139.159 E21.25556
G1 X81.674 Y136.735 E21.34015
G1 X80.843 Y134.354 E21.42402
G1 X79.947 Y131.997 E21.50789
G1 X78.993 Y129.697 E21.59071
G1 X77.384 Y126.16 E21.71995
G1 X76.424 Y124.146 E21.79416
G1 X75.264 Y121.808 E21.88097
G1 X74.085 Y119.595 E21.96436
G1 X72.834 Y117.395 E22.04854
G1 X71.522 Y115.234 E22.13262
G1 X70.124 Y113.07 E22.21831
G1 X69.067 Y111.521 E22.28068
G1 X67.975 Y109.954 E22.34421
G1 X67.261 Y108.896 E22.38666
G1 X66.102 Y107.108 E22.45753
G1 X65.56 Y106.238 E22.49162
G1 X64.581 Y104.614 E22.55469
G1 X63.751 Y103.155 E22.61052
G1 X63.082 Y101.921 E22.65721
G1 X62.327 Y100.462 E22.71185
G1 X61.646 Y99.073 E22.7633
G1 X61.082 Y97.867 E22.80758
G1 X60.45 Y96.441 E22.85946
G1 X59.26 Y93.693 E22.95906
G1 X58.191 Y91.412 E23.04285
G1 X57.062 Y89.17 E23.12634
G1 X55.851 Y86.927 E23.21112
G1 X54.593 Y84.745 E23.29489
G1 X53.262 Y82.581 E23.37939
G1 X51.844 Y80.415 E23.46549
G1 X51.222 Y79.497 E23.50238
G1 X50.732 Y78.697 E23.53358
G1 X50.329 Y77.889 E23.56361
G1 X49.972 Y76.982 E23.59603
G1 X49.718 Y76.116 E23.62605
G1 X49.527 Y75.16 E23.65847
G1 X49.427 Y74.228 E23.68965
G1 X49.41 Y73.29 E23.72085
G1 X49.476 Y72.354 E23.75206
G1 X49.624 Y71.427 E23.78328
G1 X49.854 Y70.517 E23.8145
G1 X50.163 Y69.631 E23.84571
G1 X50.55 Y68.775 E23.87696
G1 X51.011 Y67.957 E23.90819
G1 X51.542 Y67.184 E23.93938
G1 X52.139 Y66.46 E23.97059
G1 X52.798 Y65.793 E24.00177
G1 X53.485 Y65.207 E24.03181
M204 S2000
G0 F7500 X53.745 Y65.511
M204 S500
G1 F1500 X54.482 Y64.989 E24.06185
G1 X55.262 Y64.534 E24.09188
G1 X56.08 Y64.15 E24.12194
G1 X56.928 Y63.84 E24.15197
G1 X57.8 Y63.605 E24.182
G1 X58.689 Y63.449 E24.21202
G1 X59.589 Y63.373 E24.24206
G1 X60.794 Y63.394 E24.28215
G1 X61.504 Y63.449 E24.30583
G1 X62.839 Y63.571 E24.35042
G1 X65.33 Y63.73 E24.43344
G1 X67.898 Y63.821 E24.51891
G1 X70.498 Y63.84 E24.60538
G1 X72.321 Y63.817 E24.66602
G1 X73.224 Y63.845 E24.69607
G1 X74.069 Y63.945 E24.72437
G1 X75.069 Y64.109 E24.75808
G1 X76.527 Y64.379 E24.80739
G1 X77.407 Y64.582 E24.83743
G1 X77.98 Y64.76 E24.85739
G1 X81.027 Y65.767 E24.96412
G1 X83.426 Y66.478 E25.04734
G1 X85.925 Y67.144 E25.13336
G1 X88.395 Y67.726 E25.21777
G1 X90.854 Y68.233 E25.30127
G1 X93.366 Y68.678 E25.38612
G1 X95.88 Y69.05 E25.47065
G1 X98.389 Y69.349 E25.55469
G1 X100.939 Y69.581 E25.63985
G1 X103.449 Y69.736 E25.72349
G1 X105.989 Y69.823 E25.80803
G1 X108.557 Y69.836 E25.89344
G1 X111.058 Y69.78 E25.97664
G1 X113.62 Y69.649 E26.06197
G1 X116.142 Y69.449 E26.14611
G1 X118.678 Y69.174 E26.23095
G1 X121.196 Y68.83 E26.31548
G1 X123.674 Y68.419 E26.39903
G1 X126.192 Y67.929 E26.48435
G1 X128.632 Y67.383 E26.56751
G1 X131.121 Y66.749 E26.65294
G1 X133.552 Y66.057 E26.737
G1 X137.1 Y64.916 E26.86096
G1 X137.971 Y64.678 E26.89099
G1 X138.86 Y64.518 E26.92104
G1 X139.76 Y64.437 E26.95109
G1 X140.663 Y64.435 E26.98113
G1 X141.562 Y64.514 E27.01114
G1 X142.452 Y64.672 E27.04121
G1 X143.323 Y64.908 E27.07122
G1 X144.171 Y65.221 E27.10128
G1 X144.987 Y65.606 E27.13129
G1 X145.766 Y66.063 E27.16133
G1 X146.502 Y66.587 E27.19138
G1 X147.094 Y67.086 E27.21713
G1 X147.569 Y67.527 E27.23869
G1 X153.268 Y73.083 E27.50341
G1 X153.867 Y73.682 E27.53159
G1 X154.476 Y74.349 E27.56163
G1 X155.023 Y75.067 E27.59165
G1 X155.505 Y75.83 E27.62167
G1 X155.918 Y76.634 E27.65173
G1 X156.258 Y77.47 E27.68175
G1 X156.522 Y78.334 E27.7118
G1 X156.709 Y79.218 E27.74185
G1 X156.818 Y80.114 E27.77187
G1 X156.846 Y80.715 E27.79188
G1 X156.861 Y81.627 E27.82222
G1 X156.941 Y84.189 E27.90747
G1 X157.093 Y86.73 E27.99214
G1 X157.318 Y89.281 E28.07731
G1 X157.609 Y91.778 E28.16093
G1 X157.975 Y94.291 E28.24539
G1 X158.416 Y96.817 E28.33068
G1 X158.92 Y99.292 E28.41468
G1 X159.494 Y101.756 E28.49883
