;FLAVOR:Marlin
;TIME:1044
;Filament used: 0.710431m
;Layer height: 0.2
;MINX:79.278
;MINY:70.473
;MINZ:0.2
;MAXX:141.709
;MAXY:149.522
;MAXZ:10
;TARGET_MACHINE.NAME:Creality Ender-3 S1 Pro
;Generated with Cura_SteamEngine 5.8.1
M82 ;absolute extrusion mode
; Ender 3 S1 Pro Start G-code
; M413 S0 ; Disable power loss recovery
G92 E0 ; Reset Extruder

; Prep surfaces before auto home for better accuracy
M140 S60
M104 S200

G28 ; Home all axes
G1 Z10.0 F3000 ; Move Z Axis up little to prevent scratching of Heat Bed
G1 X0 Y0

M190 S60
M109 S200

G1 X0.1 Y20 Z0.3 F5000.0 ; Move to start position
G1 X0.1 Y200.0 Z0.3 F1500.0 E15 ; Draw the first line
G1 X0.4 Y200.0 Z0.3 F5000.0 ; Move to side a little
G1 X0.4 Y20 Z0.3 F1500.0 E30 ; Draw the second line
G92 E0 ; Reset Extruder
G1 Z2.0 F3000 ; Move Z Axis up little to prevent scratching of Heat Bed
G1 X5 Y20 Z0.3 F5000.0 ; Move over to prevent blob squish

G92 E0
G92 E0
G1 F2400 E-0.8
;LAYER_COUNT:50
;LAYER:0
M107
M204 S2000
G0 F7500 X84.274 Y76.426 Z0.2
M204 S500
;TYPE:SKIRT
G1 F2400 E0
G1 F1500 X84.921 Y75.763 E0.03081
G1 X85.378 Y75.333 E0.05168
G1 X86.044 Y74.757 E0.08097
G1 X86.601 Y74.314 E0.10464
G1 X87.319 Y73.79 E0.1342
G1 X87.878 Y73.418 E0.15654
G1 X88.647 Y72.952 E0.18644
G1 X89.243 Y72.623 E0.20909
G1 X90.106 Y72.199 E0.24107
G1 X90.786 Y71.901 E0.26576
G1 X91.596 Y71.586 E0.29467
G1 X92.209 Y71.377 E0.31621
G1 X93.06 Y71.124 E0.34574
G1 X93.712 Y70.96 E0.3681
G1 X94.606 Y70.776 E0.39845
G1 X95.315 Y70.661 E0.42234
G1 X96.033 Y70.57 E0.44642
G1 X96.677 Y70.519 E0.4679
G1 X97.247 Y70.487 E0.48689
G1 X98.052 Y70.473 E0.51367
G1 X98.572 Y70.485 E0.53097
G1 X99.343 Y70.529 E0.55665
G1 X100.008 Y70.592 E0.57887
G1 X100.906 Y70.715 E0.60902
G1 X101.616 Y70.844 E0.63302
G1 X102.373 Y71.011 E0.6588
G1 X103.073 Y71.197 E0.68289
G1 X104.668 Y71.659 E0.73812
G1 X107.18 Y72.341 E0.8247
G1 X109.614 Y72.927 E0.90797
G1 X112.096 Y73.452 E0.99234
G1 X114.545 Y73.899 E1.07514
G1 X117.033 Y74.279 E1.15885
G1 X119.565 Y74.593 E1.24371
G1 X122.066 Y74.832 E1.32728
G1 X124.559 Y74.999 E1.41038
G1 X127.091 Y75.096 E1.49466
G1 X129.741 Y75.137 E1.58281
G1 X130.715 Y75.196 E1.61526
G1 X131.642 Y75.336 E1.64644
G1 X132.534 Y75.548 E1.67694
G1 X132.939 Y75.663 E1.69094
G1 X133.877 Y75.978 E1.72385
G1 X135.198 Y76.582 E1.77216
G1 X136.197 Y77.179 E1.81087
G1 X137.127 Y77.867 E1.84935
G1 X137.376 Y78.075 E1.86014
G1 X138.099 Y78.736 E1.89272
G1 X138.949 Y79.676 E1.93487
G1 X139.567 Y80.508 E1.96934
G1 X140.255 Y81.646 E2.01357
G1 X140.731 Y82.647 E2.05044
G1 X141.094 Y83.638 E2.08554
G1 X141.195 Y83.968 E2.09702
G1 X141.423 Y84.842 E2.12706
G1 X141.627 Y86.159 E2.17139
G1 X141.655 Y86.469 E2.18174
G1 X141.7 Y87.311 E2.20978
G1 X141.709 Y88.058 E2.23463
G1 X141.708 Y93.635 E2.42012
G1 X141.696 Y94.408 E2.44584
G1 X141.638 Y95.381 E2.47826
G1 X141.492 Y96.343 E2.51062
G1 X141.281 Y97.227 E2.54085
G1 X141.163 Y97.639 E2.5551
G1 X140.854 Y98.561 E2.58744
G1 X140.494 Y99.389 E2.61747
G1 X140.117 Y100.109 E2.6445
G1 X139.611 Y100.939 E2.67683
G1 X139.066 Y101.683 E2.70751
G1 X137.805 Y103.244 E2.77425
G1 X136.275 Y105.219 E2.85735
G1 X134.793 Y107.247 E2.94089
G1 X133.37 Y109.314 E3.02435
G1 X131.994 Y111.439 E3.10856
G1 X130.681 Y113.598 E3.1926
G1 X129.452 Y115.754 E3.27514
G1 X128.248 Y118.013 E3.36028
G1 X127.129 Y120.266 E3.44395
G1 X126.083 Y122.53 E3.5269
G1 X125.095 Y124.836 E3.61034
G1 X124.157 Y127.206 E3.69512
G1 X123.295 Y129.58 E3.77912
G1 X122.514 Y131.938 E3.86174
G1 X121.784 Y134.369 E3.94616
G1 X121.127 Y136.806 E4.03011
G1 X120.529 Y139.308 E4.11567
G1 X120.185 Y140.877 E4.16909
G1 X119.922 Y141.85 E4.20262
G1 X119.586 Y142.766 E4.23507
G1 X119.17 Y143.647 E4.26747
G1 X118.679 Y144.486 E4.29981
G1 X118.115 Y145.281 E4.33223
G1 X117.507 Y145.996 E4.36344
G1 X116.788 Y146.703 E4.39698
G1 X116.063 Y147.301 E4.42824
G1 X115.259 Y147.852 E4.46066
G1 X114.412 Y148.329 E4.49299
G1 X113.491 Y148.745 E4.5266
G1 X112.57 Y149.063 E4.55901
G1 X111.626 Y149.298 E4.59136
G1 X110.664 Y149.449 E4.62375
G1 X109.685 Y149.515 E4.65639
G1 X108.577 Y149.484 E4.69325
G1 X105.485 Y149.241 E4.79641
G1 X102.935 Y149.116 E4.88133
G1 X100.44 Y149.065 E4.96433
G1 X97.901 Y149.086 E5.04878
G1 X95.414 Y149.176 E5.13155
G1 X92.826 Y149.343 E5.21781
G1 X91.233 Y149.483 E5.271
G1 X90.261 Y149.522 E5.30335
G1 X89.359 Y149.481 E5.33338
G1 X88.323 Y149.34 E5.36816
G1 X87.373 Y149.123 E5.40057
G1 X86.513 Y148.846 E5.43062
G1 X85.551 Y148.438 E5.46537
G1 X84.693 Y147.979 E5.49774
G1 X83.907 Y147.465 E5.52897
G1 X83.115 Y146.841 E5.56251
G1 X82.406 Y146.172 E5.59493
G1 X81.783 Y145.471 E5.62612
G1 X81.182 Y144.659 E5.65972
G1 X80.676 Y143.83 E5.69203
G1 X80.273 Y143.022 E5.72206
G1 X79.891 Y142.047 E5.75689
G1 X79.621 Y141.112 E5.78926
G1 X79.432 Y140.157 E5.82164
G1 X79.331 Y139.206 E5.85344
G1 X79.312 Y138.734 E5.86916
G1 X79.291 Y137.559 E5.90824
G1 X79.291 Y90.799 E7.46349
G1 X79.278 Y89.119 E7.51936
G1 X79.302 Y88.248 E7.54835
G1 X79.344 Y87.64 E7.56862
G1 X79.411 Y86.948 E7.59174
G1 X79.507 Y86.217 E7.61626
G1 X79.654 Y85.43 E7.64289
G1 X79.819 Y84.692 E7.66804
G1 X80.058 Y83.804 E7.69863
G1 X80.254 Y83.181 E7.72035
G1 X80.56 Y82.342 E7.75005
G1 X80.834 Y81.678 E7.77394
G1 X81.207 Y80.87 E7.80354
G1 X81.491 Y80.318 E7.82419
G1 X81.934 Y79.542 E7.85391
G1 X82.324 Y78.917 E7.87841
G1 X82.829 Y78.183 E7.90805
G1 X83.245 Y77.633 E7.93098
G1 X83.793 Y76.965 E7.95972
G1 X84.274 Y76.426 E7.98375
M204 S2000
G0 F7500 X84.561 Y76.705
M204 S500
G1 F1500 X85.195 Y76.054 E8.01397
G1 X85.64 Y75.635 E8.0343
G1 X86.293 Y75.07 E8.06302
G1 X86.837 Y74.637 E8.08615
G1 X87.541 Y74.123 E8.11514
G1 X88.085 Y73.76 E8.13689
G1 X88.84 Y73.302 E8.16626
G1 X89.42 Y72.982 E8.18829
G1 X90.267 Y72.565 E8.21969
G1 X90.931 Y72.274 E8.24381
G1 X91.725 Y71.965 E8.27214
G1 X92.338 Y71.756 E8.29368
G1 X93.158 Y71.512 E8.32214
G1 X93.793 Y71.352 E8.34392
G1 X94.67 Y71.171 E8.3737
G1 X95.366 Y71.058 E8.39716
G1 X96.065 Y70.969 E8.42059
G1 X96.699 Y70.918 E8.44175
G1 X97.254 Y70.887 E8.46024
G1 X98.043 Y70.873 E8.48648
G1 X98.549 Y70.884 E8.50332
G1 X99.306 Y70.927 E8.52853
G1 X99.954 Y70.988 E8.55018
G1 X100.835 Y71.109 E8.57976
G1 X101.53 Y71.235 E8.60325
G1 X102.271 Y71.398 E8.62849
G1 X102.962 Y71.581 E8.65226
G1 X104.563 Y72.045 E8.7077
G1 X107.086 Y72.73 E8.79466
G1 X109.52 Y73.316 E8.87792
G1 X112.024 Y73.846 E8.96305
G1 X114.473 Y74.292 E9.04585
G1 X116.984 Y74.676 E9.13033
G1 X119.516 Y74.99 E9.21519
G1 X122.037 Y75.231 E9.29942
G1 X124.544 Y75.399 E9.38299
G1 X127.076 Y75.496 E9.46727
G1 X129.717 Y75.536 E9.55512
G1 X130.655 Y75.592 E9.58637
G1 X131.582 Y75.732 E9.61756
G1 X132.425 Y75.933 E9.64638
G1 X132.813 Y76.043 E9.65979
G1 X133.711 Y76.342 E9.69127
G1 X135.032 Y76.946 E9.73959
G1 X135.959 Y77.501 E9.77552
G1 X136.871 Y78.175 E9.81324
G1 X137.107 Y78.371 E9.82344
G1 X137.803 Y79.005 E9.85476
G1 X138.628 Y79.915 E9.89561
G1 X139.246 Y80.747 E9.93008
G1 X139.894 Y81.818 E9.97171
G1 X140.355 Y82.785 E10.00735
G1 X140.718 Y83.776 E10.04245
G1 X140.808 Y84.069 E10.05264
G1 X141.036 Y84.943 E10.08268
G1 X141.229 Y86.195 E10.12482
G1 X141.256 Y86.49 E10.13467
G1 X141.3 Y87.316 E10.16218
G1 X141.309 Y88.058 E10.18686
G1 X141.308 Y93.629 E10.37216
G1 X141.297 Y94.385 E10.3973
G1 X141.242 Y95.322 E10.42852
G1 X141.103 Y96.25 E10.45973
G1 X140.896 Y97.118 E10.48941
G1 X140.784 Y97.512 E10.50303
G1 X140.487 Y98.402 E10.53424
G1 X140.127 Y99.23 E10.56427
G1 X139.775 Y99.901 E10.58947
G1 X139.288 Y100.703 E10.62068
G1 X138.755 Y101.432 E10.65072
G1 X137.494 Y102.993 E10.71746
G1 X135.959 Y104.974 E10.80081
G1 X134.47 Y107.011 E10.88473
G1 X133.034 Y109.097 E10.96896
G1 X131.652 Y111.231 E11.05353
G1 X130.34 Y113.39 E11.13755
G1 X129.099 Y115.566 E11.22087
G1 X127.895 Y117.825 E11.30601
G1 X126.771 Y120.088 E11.39005
G1 X125.715 Y122.372 E11.47374
G1 X124.727 Y124.678 E11.55719
G1 X123.785 Y127.059 E11.64235
G1 X122.919 Y129.443 E11.72671
G1 X122.134 Y131.812 E11.80972
G1 X121.401 Y134.254 E11.89452
G1 X120.741 Y136.702 E11.97885
G1 X120.14 Y139.215 E12.06479
G1 X119.794 Y140.791 E12.11845
G1 X119.546 Y141.713 E12.15021
G1 X119.224 Y142.596 E12.18147
G1 X118.825 Y143.445 E12.21267
G1 X118.352 Y144.255 E12.24387
G1 X117.81 Y145.022 E12.27511
G1 X117.202 Y145.737 E12.30632
G1 X116.533 Y146.394 E12.33751
G1 X115.808 Y146.992 E12.36877
G1 X115.063 Y147.503 E12.39881
G1 X114.216 Y147.98 E12.43115
G1 X113.36 Y148.367 E12.46239
G1 X112.473 Y148.675 E12.49362
G1 X111.563 Y148.903 E12.52482
G1 X110.636 Y149.05 E12.55604
G1 X109.696 Y149.115 E12.58738
G1 X108.608 Y149.085 E12.62358
G1 X105.505 Y148.841 E12.72711
G1 X102.955 Y148.716 E12.81202
G1 X100.445 Y148.665 E12.89552
G1 X97.887 Y148.686 E12.9806
G1 X95.4 Y148.776 E13.06337
G1 X92.8 Y148.944 E13.15003
G1 X91.216 Y149.083 E13.20292
G1 X90.279 Y149.122 E13.23411
G1 X89.377 Y149.081 E13.26414
G1 X88.412 Y148.95 E13.29653
G1 X87.496 Y148.742 E13.32777
G1 X86.636 Y148.465 E13.35782
G1 X85.739 Y148.085 E13.39023
G1 X84.912 Y147.644 E13.4214
G1 X84.126 Y147.13 E13.45263
G1 X83.389 Y146.55 E13.48383
G1 X82.705 Y145.906 E13.51507
G1 X82.082 Y145.205 E13.54627
G1 X81.523 Y144.45 E13.57751
G1 X81.034 Y143.651 E13.60867
G1 X80.631 Y142.843 E13.6387
G1 X80.275 Y141.935 E13.67114
G1 X80.013 Y141.034 E13.70235
G1 X79.83 Y140.114 E13.73355
G1 X79.731 Y139.19 E13.76445
G1 X79.712 Y138.727 E13.77987
G1 X79.691 Y137.552 E13.81895
G1 X79.691 Y90.799 E15.37396
G1 X79.678 Y89.13 E15.42948
G1 X79.701 Y88.275 E15.45792
G1 X79.742 Y87.679 E15.47779
G1 X79.808 Y87 E15.50048
G1 X79.904 Y86.269 E15.52501
G1 X80.044 Y85.517 E15.55045
G1 X80.205 Y84.796 E15.57502
G1 X80.439 Y83.924 E15.60505
G1 X80.63 Y83.318 E15.62618
G1 X80.93 Y82.494 E15.65535
G1 X81.197 Y81.846 E15.67866
G1 X81.563 Y81.053 E15.70771
G1 X81.839 Y80.516 E15.72779
G1 X82.273 Y79.754 E15.75696
G1 X82.654 Y79.144 E15.78088
G1 X83.159 Y78.41 E15.81051
G1 X83.554 Y77.887 E15.83231
G1 X84.092 Y77.231 E15.86053
G1 X84.561 Y76.705 E15.88397
M204 S2000
G0 F7500 X84.848 Y76.984
M204 S500
G1 F1500 X85.469 Y76.345 E15.9136
G1 X85.902 Y75.937 E15.93339
G1 X86.542 Y75.383 E15.96154
G1 X87.073 Y74.96 E15.98412
G1 X87.763 Y74.456 E16.01254
G1 X88.293 Y74.102 E16.03374
G1 X89.033 Y73.652 E16.06255
G1 X89.597 Y73.341 E16.08397
G1 X90.428 Y72.931 E16.11479
G1 X91.076 Y72.647 E16.13832
G1 X91.87 Y72.338 E16.16666
G1 X92.452 Y72.139 E16.18712
G1 X93.256 Y71.9 E16.21501
G1 X93.874 Y71.744 E16.23621
G1 X94.734 Y71.566 E16.26542
G1 X95.417 Y71.455 E16.28844
G1 X96.098 Y71.368 E16.31127
G1 X96.721 Y71.317 E16.33206
G1 X97.261 Y71.287 E16.35005
G1 X98.035 Y71.273 E16.3758
G1 X98.526 Y71.283 E16.39213
G1 X99.269 Y71.325 E16.41688
G1 X99.899 Y71.384 E16.43793
G1 X100.764 Y71.503 E16.46697
G1 X101.444 Y71.626 E16.48995
G1 X102.169 Y71.785 E16.51464
G1 X102.851 Y71.965 E16.5381
G1 X104.458 Y72.431 E16.59375
G1 X106.992 Y73.119 E16.68108
G1 X109.426 Y73.705 E16.76435
G1 X111.952 Y74.24 E16.85023
G1 X114.401 Y74.685 E16.93302
G1 X116.935 Y75.073 E17.01828
G1 X119.467 Y75.387 E17.10314
G1 X122.008 Y75.63 E17.18804
G1 X124.529 Y75.799 E17.27208
G1 X127.061 Y75.896 E17.35636
G1 X129.694 Y75.935 E17.44394
G1 X130.596 Y75.988 E17.47399
G1 X131.489 Y76.121 E17.50402
G1 X132.316 Y76.318 E17.5323
G1 X132.688 Y76.423 E17.54515
G1 X133.545 Y76.706 E17.57517
G1 X134.827 Y77.29 E17.62203
G1 X135.721 Y77.823 E17.65664
G1 X136.633 Y78.497 E17.69436
G1 X136.838 Y78.667 E17.70322
G1 X137.507 Y79.274 E17.73326
G1 X138.307 Y80.154 E17.77282
G1 X138.925 Y80.986 E17.80729
G1 X139.533 Y81.991 E17.84636
G1 X139.979 Y82.923 E17.88072
G1 X140.342 Y83.914 E17.91583
G1 X140.421 Y84.17 E17.92474
G1 X140.649 Y85.044 E17.95478
G1 X140.831 Y86.232 E17.99475
G1 X140.857 Y86.511 E18.00407
G1 X140.9 Y87.321 E18.03105
G1 X140.909 Y88.058 E18.05557
G1 X140.908 Y93.624 E18.24069
G1 X140.898 Y94.362 E18.26524
G1 X140.846 Y95.264 E18.29529
G1 X140.714 Y96.157 E18.32532
G1 X140.511 Y97.009 E18.35445
G1 X140.404 Y97.386 E18.36748
G1 X140.12 Y98.243 E18.39751
G1 X139.76 Y99.071 E18.42754
G1 X139.433 Y99.694 E18.45094
G1 X138.965 Y100.467 E18.481
G1 X138.444 Y101.181 E18.51039
G1 X137.183 Y102.742 E18.57714
G1 X135.643 Y104.729 E18.66075
G1 X134.147 Y106.775 E18.74505
G1 X132.698 Y108.88 E18.83005
G1 X131.31 Y111.023 E18.91497
G1 X129.999 Y113.182 E18.99898
G1 X128.746 Y115.378 E19.08307
G1 X127.542 Y117.637 E19.16821
G1 X126.413 Y119.91 E19.25262
G1 X125.347 Y122.214 E19.33706
G1 X124.359 Y124.52 E19.4205
G1 X123.413 Y126.912 E19.50605
G1 X122.543 Y129.306 E19.59077
G1 X121.754 Y131.686 E19.67417
G1 X121.018 Y134.139 E19.75935
G1 X120.355 Y136.598 E19.84406
G1 X119.751 Y139.122 E19.93038
G1 X119.403 Y140.705 E19.98428
G1 X119.17 Y141.577 E20.0143
G1 X118.862 Y142.426 E20.04434
G1 X118.479 Y143.244 E20.07438
G1 X118.025 Y144.025 E20.10443
G1 X117.505 Y144.763 E20.13446
G1 X116.921 Y145.452 E20.1645
G1 X116.278 Y146.086 E20.19453
G1 X115.582 Y146.662 E20.22458
G1 X114.837 Y147.173 E20.25463
G1 X114.051 Y147.616 E20.28464
G1 X113.228 Y147.989 E20.31469
G1 X112.375 Y148.287 E20.34474
G1 X111.5 Y148.508 E20.37476
G1 X110.608 Y148.651 E20.40481
G1 X109.707 Y148.715 E20.43485
G1 X108.639 Y148.686 E20.47038
G1 X105.525 Y148.441 E20.57428
G1 X102.975 Y148.316 E20.65919
G1 X100.45 Y148.265 E20.74319
G1 X97.873 Y148.286 E20.8289
G1 X95.386 Y148.376 E20.91168
G1 X92.774 Y148.545 E20.99873
G1 X91.199 Y148.683 E21.05132
G1 X90.297 Y148.722 E21.08135
G1 X89.395 Y148.681 E21.11138
G1 X88.5 Y148.56 E21.14142
G1 X87.619 Y148.361 E21.17146
G1 X86.759 Y148.084 E21.20151
G1 X85.927 Y147.732 E21.23156
G1 X85.13 Y147.309 E21.26157
G1 X84.373 Y146.816 E21.29161
G1 X83.663 Y146.258 E21.32165
G1 X83.004 Y145.64 E21.3517
G1 X82.403 Y144.966 E21.38173
G1 X81.864 Y144.241 E21.41178
G1 X81.392 Y143.472 E21.44179
G1 X80.989 Y142.664 E21.47182
G1 X80.659 Y141.823 E21.50187
G1 X80.405 Y140.956 E21.53192
G1 X80.228 Y140.071 E21.56194
G1 X80.131 Y139.173 E21.59198
G1 X80.112 Y138.72 E21.60706
G1 X80.091 Y137.545 E21.64614
G1 X80.091 Y90.799 E23.20092
G1 X80.078 Y89.14 E23.2561
G1 X80.1 Y88.302 E23.28398
G1 X80.14 Y87.718 E23.30345
G1 X80.205 Y87.052 E23.32571
G1 X80.301 Y86.321 E23.35023
G1 X80.434 Y85.604 E23.37449
G1 X80.591 Y84.899 E23.39851
G1 X80.82 Y84.044 E23.42795
G1 X81.006 Y83.455 E23.44849
G1 X81.3 Y82.646 E23.47712
G1 X81.56 Y82.014 E23.49985
G1 X81.919 Y81.236 E23.52835
G1 X82.187 Y80.714 E23.54787
G1 X82.612 Y79.966 E23.57648
G1 X82.984 Y79.371 E23.59982
G1 X83.489 Y78.637 E23.62945
G1 X83.863 Y78.141 E23.65011
G1 X84.391 Y77.497 E23.67781
G1 X84.848 Y76.984 E23.70066
M204 S2000
G1 F2400 E22.90066
;MESH:e-su pinset v8.stl
G0 F7500 X89.627 Y89.74
G0 X109.143 Y137.861
M204 S500
;TYPE:WALL-OUTER
G1 F2400 E23.70066
G1 F1200 X108.599 Y137.306 E23.73297
G1 X104.821 Y88.58 E25.76485
G1 F1204.8 X104.783 Y88.245 E25.77881
G1 X104.734 Y87.929 E25.79205
G1 F1202.4 X104.664 Y87.586 E25.80657
G1 F1200 X104.578 Y87.252 E25.82091
G1 F1195.2 X104.484 Y86.945 E25.83431
G1 X104.364 Y86.614 E25.84901
G1 X104.233 Y86.298 E25.86329
G1 X103.926 Y85.698 E25.89142
G1 X103.755 Y85.417 E25.90515
G1 X103.557 Y85.121 E25.92002
G1 X103.37 Y84.867 E25.93318
G1 X102.941 Y84.365 E25.96075
G1 F1204.8 X102.676 Y84.1 E25.97626
G1 F1209.7 X102.423 Y83.871 E25.99034
G1 F1207.2 X102.173 Y83.668 E26.00365
G1 F1209.7 X101.886 Y83.459 E26.01829
G1 F1207.2 X101.618 Y83.28 E26.03161
G1 F1204.8 X101.323 Y83.106 E26.04579
G1 F1202.4 X101.012 Y82.942 E26.06038
G1 F1200 X100.71 Y82.801 E26.07424
G1 F1197.6 X100.393 Y82.674 E26.08846
G1 F1195.2 X100.08 Y82.563 E26.10232
G1 X99.76 Y82.467 E26.11627
G1 F1190.5 X99.426 Y82.381 E26.13072
G1 F1188.1 X98.862 Y82.28 E26.15478
G1 F1195.2 X98.246 Y82.216 E26.18063
G1 F1200 X97.746 Y82.218 E26.20142
G1 X97.392 Y82.235 E26.21616
G1 F1204.8 X97.066 Y82.268 E26.22972
G1 X96.731 Y82.318 E26.24375
G1 F1207.2 X96.406 Y82.384 E26.25746
G1 F1204.8 X96.044 Y82.475 E26.27291
G1 F1200 X95.416 Y82.686 E26.30046
G1 X95.112 Y82.818 E26.31423
G1 F1195.2 X94.797 Y82.969 E26.32882
G1 F1192.8 X94.513 Y83.123 E26.34233
G1 F1195.2 X94.21 Y83.305 E26.35708
G1 X93.934 Y83.492 E26.371
G1 F1197.6 X93.672 Y83.686 E26.38458
G1 F1195.2 X93.395 Y83.914 E26.39955
