;FLAVOR:Marlin
;TIME:7605
;Filament used: 7.12862m
;Layer height: 0.2
;MINX:29.937
;MINY:66.512
;MINZ:0.2
;MAXX:190.063
;MAXY:153.488
;MAXZ:16.2
;TARGET_MACHINE.NAME:Creality Ender-3 S1 Pro
;Generated with Cura_SteamEngine 5.8.1
M82 ;absolute extrusion mode
; Ender 3 S1 Pro Start G-code
; M413 S0 ; Disable power loss recovery
G92 E0 ; Reset Extruder

; Prep surfaces before auto home for better accuracy
M140 S60
M104 S200

G28 ; Home all axes
G1 Z10.0 F3000 ; Move Z Axis up little to prevent scratching of Heat Bed
G1 X0 Y0

M190 S60
M109 S200

G1 X0.1 Y20 Z0.3 F5000.0 ; Move to start position
G1 X0.1 Y200.0 Z0.3 F1500.0 E15 ; Draw the first line
G1 X0.4 Y200.0 Z0.3 F5000.0 ; Move to side a little
G1 X0.4 Y20 Z0.3 F1500.0 E30 ; Draw the second line
G92 E0 ; Reset Extruder
G1 Z2.0 F3000 ; Move Z Axis up little to prevent scratching of Heat Bed
G1 X5 Y20 Z0.3 F5000.0 ; Move over to prevent blob squish

G92 E0
G92 E0
G1 F2400 E-0.8
;LAYER_COUNT:81
;LAYER:0
M107
M204 S2000
G0 F7500 X50.953 Y68.45 Z0.2
M204 S500
;TYPE:SKIRT
G1 F2400 E0
G1 F1500 X51.717 Y67.969 E0.03003
G1 X52.647 Y67.493 E0.06478
G1 X53.552 Y67.13 E0.09721
G1 X54.416 Y66.867 E0.12725
G1 X55.436 Y66.653 E0.16191
G1 X56.404 Y66.539 E0.19433
G1 X57.307 Y66.512 E0.22438
G1 X58.35 Y66.572 E0.25912
G1 X59.287 Y66.713 E0.29064
G1 X60.644 Y67.067 E0.33728
G1 X61.621 Y67.39 E0.37151
G1 X64.17 Y68.193 E0.4604
G1 X66.58 Y68.877 E0.54372
G1 X69.01 Y69.497 E0.62713
G1 X71.489 Y70.05 E0.71161
G1 X73.917 Y70.521 E0.79387
G1 X76.463 Y70.941 E0.87969
G1 X78.904 Y71.274 E0.96163
G1 X81.419 Y71.546 E1.04577
G1 X83.935 Y71.746 E1.12972
G1 X86.451 Y71.872 E1.2135
G1 X88.945 Y71.927 E1.29648
G1 X91.471 Y71.912 E1.38049
G1 X94.003 Y71.825 E1.46476
G1 X96.511 Y71.668 E1.54834
G1 X98.994 Y71.442 E1.63126
G1 X101.498 Y71.141 E1.71515
G1 X104.029 Y70.766 E1.80025
G1 X106.454 Y70.337 E1.88215
G1 X108.974 Y69.815 E1.96775
G1 X111.377 Y69.248 E2.04987
G1 X113.827 Y68.594 E2.13421
G1 X116.252 Y67.872 E2.21836
G1 X118.836 Y67.036 E2.30869
G1 X119.774 Y66.78 E2.34103
G1 X120.663 Y66.618 E2.37109
G1 X121.705 Y66.523 E2.40589
G1 X122.677 Y66.523 E2.43822
G1 X123.577 Y66.6 E2.46826
G1 X124.256 Y66.708 E2.49113
G1 X125.406 Y66.928 E2.53007
G1 X125.66 Y66.968 E2.53862
G1 X126.668 Y67.164 E2.57278
G1 X129.159 Y67.581 E2.65678
G1 X131.616 Y67.918 E2.73927
G1 X134.138 Y68.193 E2.82365
G1 X136.665 Y68.398 E2.90797
G1 X139.149 Y68.525 E2.9907
G1 X141.672 Y68.584 E3.07463
G1 X144.205 Y68.573 E3.15888
G1 X146.702 Y68.49 E3.24198
G1 X149.238 Y68.335 E3.32648
G1 X151.729 Y68.112 E3.40967
G1 X154.199 Y67.819 E3.4924
G1 X156.73 Y67.449 E3.57747
G1 X159.262 Y67.001 E3.66299
G1 X160.701 Y66.717 E3.71178
G1 X161.665 Y66.572 E3.7442
G1 X162.636 Y66.513 E3.77656
G1 X163.539 Y66.536 E3.8066
G1 X164.578 Y66.654 E3.84138
G1 X165.531 Y66.854 E3.87377
G1 X166.463 Y67.136 E3.90615
G1 X167.367 Y67.499 E3.93856
G1 X168.234 Y67.942 E3.97094
G1 X169.057 Y68.458 E4.00325
G1 X169.779 Y69.001 E4.03329
G1 X170.338 Y69.491 E4.05802
G1 X170.805 Y69.936 E4.07947
G1 X186.466 Y85.597 E4.81612
G1 X186.95 Y86.095 E4.83922
G1 X187.606 Y86.838 E4.87218
G1 X188.185 Y87.622 E4.9046
G1 X188.691 Y88.453 E4.93696
G1 X189.124 Y89.327 E4.9694
G1 X189.475 Y90.233 E5.00171
G1 X189.729 Y91.099 E5.03173
G1 X189.933 Y92.125 E5.06652
G1 X190.034 Y93.082 E5.09853
G1 X190.062 Y94.148 E5.134
G1 X190.063 Y125.554 E6.17857
G1 X190.05 Y126.437 E6.20794
G1 X189.991 Y127.409 E6.24033
G1 X189.845 Y128.372 E6.27272
G1 X189.614 Y129.319 E6.30514
G1 X189.301 Y130.24 E6.3375
G1 X188.907 Y131.132 E6.36993
G1 X188.436 Y131.985 E6.40234
G1 X187.91 Y132.766 E6.43366
G1 X187.111 Y133.734 E6.4754
G1 X186.691 Y134.175 E6.49566
G1 X170.975 Y149.894 E7.23496
G1 X170.471 Y150.384 E7.25834
G1 X169.729 Y151.04 E7.29128
G1 X168.945 Y151.619 E7.3237
G1 X168.114 Y152.125 E7.35606
G1 X167.241 Y152.558 E7.38847
G1 X166.4 Y152.887 E7.41851
G1 X165.397 Y153.179 E7.45325
G1 X164.44 Y153.367 E7.48569
G1 X163.473 Y153.468 E7.51803
G1 X162.499 Y153.484 E7.55043
G1 X161.566 Y153.418 E7.58154
G1 X160.737 Y153.292 E7.60942
G1 X158.942 Y152.947 E7.67022
G1 X156.447 Y152.515 E7.75444
G1 X153.956 Y152.155 E7.83815
G1 X151.441 Y151.864 E7.92236
G1 X148.906 Y151.643 E8.00699
G1 X146.433 Y151.499 E8.08938
G1 X143.909 Y151.423 E8.17337
G1 X141.384 Y151.417 E8.25735
G1 X138.883 Y151.484 E8.34057
G1 X136.374 Y151.621 E8.42414
G1 X133.86 Y151.83 E8.50804
G1 X131.332 Y152.113 E8.59265
G1 X128.854 Y152.46 E8.67587
G1 X126.348 Y152.885 E8.76041
G1 X124.257 Y153.292 E8.83127
G1 X123.364 Y153.426 E8.8613
G1 X122.32 Y153.488 E8.89608
G1 X121.348 Y153.456 E8.92843
G1 X120.381 Y153.34 E8.96082
G1 X119.497 Y153.155 E8.99086
G1 X118.749 Y152.938 E9.01677
G1 X116.339 Y152.145 E9.10115
G1 X113.931 Y151.427 E9.18473
G1 X111.515 Y150.779 E9.26792
G1 X109.025 Y150.19 E9.35303
G1 X106.578 Y149.681 E9.43616
G1 X104.107 Y149.24 E9.51964
G1 X101.637 Y148.87 E9.60271
G1 X99.085 Y148.562 E9.68821
G1 X96.609 Y148.334 E9.77091
G1 X94.134 Y148.177 E9.85339
G1 X91.568 Y148.086 E9.93879
G1 X89.076 Y148.069 E10.02168
G1 X86.533 Y148.124 E10.10628
G1 X84.038 Y148.247 E10.18936
G1 X81.538 Y148.443 E10.27277
G1 X78.999 Y148.712 E10.35769
G1 X76.556 Y149.042 E10.43968
G1 X74.018 Y149.459 E10.52522
G1 X71.584 Y149.928 E10.60767
G1 X69.125 Y150.477 E10.69147
G1 X66.665 Y151.099 E10.77586
G1 X64.277 Y151.776 E10.85842
G1 X61.816 Y152.548 E10.94421
G1 X60.592 Y152.948 E10.98703
G1 X59.654 Y153.208 E11.01941
G1 X58.695 Y153.384 E11.05184
G1 X57.726 Y153.474 E11.08421
G1 X56.753 Y153.479 E11.11657
G1 X55.853 Y153.406 E11.1466
G1 X54.822 Y153.229 E11.18139
G1 X53.882 Y152.977 E11.21376
G1 X52.967 Y152.643 E11.24616
G1 X52.084 Y152.23 E11.27858
G1 X51.243 Y151.74 E11.31096
G1 X50.446 Y151.177 E11.34341
G1 X49.669 Y150.515 E11.37736
G1 X49.17 Y150.039 E11.4003
G1 X33.519 Y134.386 E12.13652
G1 X33.023 Y133.874 E12.16023
G1 X32.401 Y133.171 E12.19145
G1 X31.803 Y132.359 E12.22499
G1 X31.297 Y131.525 E12.25744
G1 X30.869 Y130.652 E12.28977
G1 X30.519 Y129.743 E12.32217
G1 X30.249 Y128.806 E12.3546
G1 X30.063 Y127.833 E12.38755
G1 X29.951 Y126.494 E12.43224
G1 X29.937 Y125.688 E12.45905
G1 X29.938 Y94.693 E13.48995
G1 X29.949 Y93.993 E13.51324
G1 X30.009 Y93.003 E13.54623
G1 X30.156 Y92.042 E13.57856
G1 X30.387 Y91.095 E13.61098
G1 X30.701 Y90.173 E13.64338
G1 X31.095 Y89.283 E13.67575
G1 X31.566 Y88.43 E13.70816
G1 X32.093 Y87.647 E13.73955
G1 X32.908 Y86.666 E13.78197
G1 X33.722 Y85.801 E13.82147
G1 X48.845 Y70.299 E14.54178
G1 X49.455 Y69.691 E14.57043
G1 X50.176 Y69.038 E14.60278
G1 X50.953 Y68.45 E14.63519
M204 S2000
G0 F7500 X51.166 Y68.789
M204 S500
G1 F1500 X51.93 Y68.308 E14.66522
G1 X52.797 Y67.864 E14.69762
G1 X53.668 Y67.513 E14.72885
G1 X54.532 Y67.25 E14.75889
G1 X55.483 Y67.05 E14.79121
G1 X56.416 Y66.939 E14.82246
G1 X57.319 Y66.912 E14.85251
G1 X58.29 Y66.968 E14.88486
G1 X59.227 Y67.109 E14.91637
G1 X60.518 Y67.447 E14.96076
G1 X61.501 Y67.772 E14.99519
G1 X64.05 Y68.575 E15.08408
G1 X66.481 Y69.265 E15.16813
G1 X68.911 Y69.884 E15.25153
G1 X71.413 Y70.443 E15.3368
G1 X73.847 Y70.915 E15.41927
G1 X76.398 Y71.336 E15.50526
G1 X78.861 Y71.672 E15.58794
G1 X81.38 Y71.944 E15.67221
G1 X83.903 Y72.144 E15.75639
G1 X86.442 Y72.272 E15.84094
G1 X88.938 Y72.327 E15.92398
G1 X91.485 Y72.312 E16.00869
G1 X94.017 Y72.225 E16.09296
G1 X96.536 Y72.067 E16.17691
G1 X99.042 Y71.839 E16.2606
G1 X101.557 Y71.537 E16.34485
G1 X104.088 Y71.162 E16.42995
G1 X106.533 Y70.729 E16.51254
G1 X109.055 Y70.207 E16.5982
G1 X111.469 Y69.637 E16.68069
G1 X113.939 Y68.978 E16.76572
G1 X116.375 Y68.253 E16.85025
G1 X118.942 Y67.422 E16.94
G1 X119.846 Y67.174 E16.97117
G1 X120.735 Y67.012 E17.00123
G1 X121.705 Y66.923 E17.03363
G1 X122.643 Y66.922 E17.06482
G1 X123.543 Y66.999 E17.09487
G1 X124.181 Y67.101 E17.11636
G1 X125.33 Y67.321 E17.15527
G1 X125.584 Y67.361 E17.16382
G1 X126.602 Y67.559 E17.19831
G1 X129.093 Y67.975 E17.28231
G1 X131.573 Y68.316 E17.36557
G1 X134.099 Y68.591 E17.45008
G1 X136.633 Y68.796 E17.53464
G1 X139.14 Y68.925 E17.61813
G1 X141.665 Y68.984 E17.70214
G1 X144.218 Y68.973 E17.78705
G1 X146.715 Y68.89 E17.87015
G1 X149.265 Y68.734 E17.95512
G1 X151.776 Y68.509 E18.03897
G1 X154.257 Y68.215 E18.12207
G1 X156.792 Y67.844 E18.20728
G1 X159.332 Y67.395 E18.29307
G1 X160.761 Y67.112 E18.34152
G1 X161.69 Y66.971 E18.37278
G1 X162.626 Y66.913 E18.40397
G1 X163.529 Y66.936 E18.43401
G1 X164.497 Y67.046 E18.46641
G1 X165.416 Y67.237 E18.49763
G1 X166.314 Y67.507 E18.52882
G1 X167.186 Y67.856 E18.56006
G1 X168.022 Y68.281 E18.59125
G1 X168.817 Y68.778 E18.62244
G1 X169.539 Y69.321 E18.65248
G1 X170.062 Y69.781 E18.67565
G1 X170.529 Y70.226 E18.6971
G1 X186.179 Y85.876 E19.43323
G1 X186.663 Y86.374 E19.45633
G1 X187.285 Y87.076 E19.48753
G1 X187.844 Y87.831 E19.51877
G1 X188.333 Y88.631 E19.54996
G1 X188.751 Y89.472 E19.58119
G1 X189.091 Y90.346 E19.61238
G1 X189.345 Y91.212 E19.6424
G1 X189.535 Y92.168 E19.67482
G1 X189.634 Y93.093 E19.70576
G1 X189.662 Y94.148 E19.74086
G1 X189.663 Y125.548 E20.78523
G1 X189.651 Y126.413 E20.814
G1 X189.595 Y127.35 E20.84522
G1 X189.456 Y128.278 E20.87643
G1 X189.235 Y129.191 E20.90768
G1 X188.935 Y130.079 E20.93885
G1 X188.557 Y130.939 E20.9701
G1 X188.104 Y131.762 E21.00134
G1 X187.601 Y132.512 E21.03138
G1 X186.821 Y133.458 E21.07216
G1 X186.408 Y133.892 E21.09208
G1 X170.696 Y149.607 E21.8312
G1 X170.192 Y150.097 E21.85458
G1 X169.491 Y150.719 E21.88575
G1 X168.736 Y151.278 E21.91699
G1 X167.936 Y151.767 E21.94818
G1 X167.095 Y152.185 E21.97942
G1 X166.254 Y152.514 E22.00945
G1 X165.319 Y152.787 E22.04185
G1 X164.398 Y152.969 E22.07307
G1 X163.466 Y153.068 E22.10425
G1 X162.527 Y153.085 E22.13548
G1 X161.626 Y153.022 E22.16552
G1 X160.812 Y152.899 E22.1929
G1 X159.017 Y152.554 E22.2537
G1 X156.504 Y152.119 E22.33852
G1 X154.013 Y151.759 E22.42224
G1 X151.476 Y151.465 E22.50718
G1 X148.941 Y151.245 E22.59181
G1 X146.445 Y151.099 E22.67497
G1 X143.921 Y151.023 E22.75896
G1 X141.374 Y151.017 E22.84367
G1 X138.872 Y151.084 E22.92692
G1 X136.341 Y151.222 E23.01123
G1 X133.815 Y151.432 E23.09553
G1 X131.287 Y151.715 E23.18014
G1 X128.798 Y152.064 E23.26373
G1 X126.272 Y152.492 E23.34894
G1 X124.198 Y152.896 E23.41922
G1 X123.305 Y153.03 E23.44926
G1 X122.332 Y153.088 E23.48168
G1 X121.395 Y153.059 E23.51286
G1 X120.463 Y152.948 E23.54407
G1 X119.579 Y152.763 E23.57411
G1 X118.874 Y152.558 E23.59853
G1 X116.464 Y151.765 E23.68292
G1 X114.035 Y151.041 E23.76722
G1 X111.614 Y150.392 E23.85058
G1 X109.106 Y149.798 E23.93631
G1 X106.659 Y149.289 E24.01944
G1 X104.166 Y148.844 E24.10367
G1 X101.696 Y148.474 E24.18673
G1 X99.133 Y148.165 E24.2726
G1 X96.638 Y147.935 E24.35593
G1 X94.148 Y147.777 E24.43892
G1 X91.582 Y147.686 E24.52432
G1 X89.07 Y147.669 E24.60787
G1 X86.513 Y147.724 E24.69293
G1 X84.018 Y147.847 E24.77602
G1 X81.501 Y148.044 E24.85999
G1 X78.957 Y148.314 E24.94508
G1 X76.491 Y148.647 E25.02784
G1 X73.949 Y149.065 E25.11353
G1 X71.508 Y149.536 E25.19621
G1 X69.027 Y150.089 E25.28076
G1 X66.567 Y150.711 E25.36515
G1 X64.157 Y151.394 E25.44846
G1 X61.696 Y152.166 E25.53425
G1 X60.485 Y152.563 E25.57664
G1 X59.581 Y152.815 E25.60785
G1 X58.657 Y152.986 E25.6391
G1 X57.723 Y153.074 E25.67031
G1 X56.785 Y153.08 E25.70151
G1 X55.885 Y153.007 E25.73154
G1 X54.925 Y152.843 E25.76393
G1 X54.018 Y152.601 E25.79515
G1 X53.136 Y152.281 E25.82636
G1 X52.285 Y151.884 E25.85759
G1 X51.473 Y151.413 E25.88881
G1 X50.705 Y150.872 E25.92006
G1 X49.945 Y150.225 E25.95326
G1 X49.453 Y149.756 E25.97586
G1 X33.806 Y134.108 E26.71187
G1 X33.323 Y133.609 E26.73497
G1 X32.701 Y132.906 E26.76619
G1 X32.145 Y132.151 E26.79738
G1 X31.656 Y131.348 E26.82865
G1 X31.242 Y130.507 E26.85983
G1 X30.903 Y129.632 E26.89104
G1 X30.642 Y128.73 E26.92227
G1 X30.462 Y127.8 E26.95377
G1 X30.35 Y126.461 E26.99847
G1 X30.337 Y125.688 E27.02418
G1 X30.338 Y94.699 E28.05488
G1 X30.348 Y94.017 E28.07756
G1 X30.405 Y93.063 E28.10935
G1 X30.545 Y92.136 E28.14053
G1 X30.766 Y91.223 E28.17178
G1 X31.067 Y90.334 E28.20299
G1 X31.445 Y89.476 E28.23418
G1 X31.898 Y88.653 E28.26542
G1 X32.401 Y87.903 E28.29546
G1 X33.216 Y86.922 E28.33788
G1 X34.008 Y86.08 E28.37632
G1 X49.127 Y70.582 E29.09644
G1 X49.724 Y69.987 E29.12448
G1 X50.418 Y69.357 E29.15565
G1 X51.166 Y68.789 E29.18689
M204 S2000
G0 F7500 X51.379 Y69.128
M204 S500
G1 F1500 X52.143 Y68.647 E29.21692
G1 X52.947 Y68.235 E29.24697
G1 X53.784 Y67.896 E29.277
G1 X54.648 Y67.633 E29.30704
G1 X55.531 Y67.447 E29.33705
G1 X56.428 Y67.339 E29.3671
G1 X57.331 Y67.312 E29.39715
G1 X58.232 Y67.364 E29.42717
G1 X59.126 Y67.496 E29.45722
G1 X60.392 Y67.827 E29.50075
G1 X61.381 Y68.154 E29.53539
G1 X63.93 Y68.957 E29.62428
G1 X66.382 Y69.653 E29.70906
G1 X68.812 Y70.271 E29.79245
G1 X71.337 Y70.836 E29.87851
G1 X73.777 Y71.309 E29.96118
G1 X76.333 Y71.731 E30.04734
G1 X78.818 Y72.07 E30.13076
G1 X81.342 Y72.342 E30.21519
G1 X83.871 Y72.542 E30.29957
G1 X86.433 Y72.672 E30.38489
G1 X88.931 Y72.727 E30.46799
G1 X91.499 Y72.712 E30.55341
G1 X94.031 Y72.625 E30.63767
G1 X96.561 Y72.466 E30.72199
G1 X99.09 Y72.236 E30.80645
G1 X101.616 Y71.933 E30.89107
G1 X104.147 Y71.558 E30.97617
G1 X106.612 Y71.121 E31.05943
G1 X109.136 Y70.599 E31.14516
G1 X111.561 Y70.026 E31.22803
G1 X114.046 Y69.363 E31.31358
G1 X116.498 Y68.634 E31.39866
G1 X119.048 Y67.808 E31.48781
G1 X119.918 Y67.568 E31.51783
G1 X120.807 Y67.406 E31.54788
G1 X121.706 Y67.323 E31.57791
G1 X122.609 Y67.321 E31.60794
G1 X123.509 Y67.398 E31.63799
G1 X124.106 Y67.494 E31.6581
G1 X125.254 Y67.714 E31.69698
G1 X125.508 Y67.754 E31.70553
G1 X126.536 Y67.954 E31.74036
G1 X129.027 Y68.369 E31.82435
G1 X131.53 Y68.714 E31.90839
G1 X134.06 Y68.989 E31.99303
G1 X136.601 Y69.194 E32.07782
G1 X139.131 Y69.325 E32.16208
G1 X141.658 Y69.384 E32.24616
G1 X144.231 Y69.373 E32.33173
G1 X146.728 Y69.29 E32.41483
G1 X149.292 Y69.133 E32.50027
G1 X151.823 Y68.906 E32.58479
G1 X154.315 Y68.611 E32.66825
G1 X156.854 Y68.239 E32.7536
G1 X159.402 Y67.789 E32.83966
G1 X160.822 Y67.507 E32.88781
G1 X161.715 Y67.37 E32.91786
G1 X162.616 Y67.313 E32.94789
G1 X163.519 Y67.336 E32.97793
G1 X164.416 Y67.438 E33.00796
G1 X165.301 Y67.62 E33.03801
G1 X166.166 Y67.879 E33.06804
G1 X167.005 Y68.213 E33.09808
G1 X167.811 Y68.621 E33.12812
G1 X168.577 Y69.098 E33.15814
G1 X169.299 Y69.641 E33.18818
G1 X169.786 Y70.07 E33.20977
G1 X170.246 Y70.509 E33.23092
G1 X185.892 Y86.155 E33.96686
G1 X186.364 Y86.64 E33.98937
G1 X186.964 Y87.315 E34.0194
G1 X187.503 Y88.04 E34.04945
G1 X187.975 Y88.809 E34.07946
G1 X188.378 Y89.618 E34.10952
G1 X188.707 Y90.459 E34.13956
G1 X188.961 Y91.325 E34.16958
G1 X189.137 Y92.211 E34.19962
G1 X189.234 Y93.109 E34.22966
G1 X189.253 Y93.59 E34.24567
G1 X189.262 Y94.148 E34.26423
G1 X189.263 Y125.543 E35.30844
G1 X189.252 Y126.39 E35.33661
G1 X189.199 Y127.292 E35.36666
G1 X189.067 Y128.185 E35.39669
G1 X188.856 Y129.063 E35.42672
G1 X188.568 Y129.919 E35.45676
G1 X188.206 Y130.747 E35.48682
G1 X187.772 Y131.539 E35.51685
G1 X187.269 Y132.289 E35.54689
G1 X186.531 Y133.182 E35.58542
G1 X186.125 Y133.609 E35.60502
G1 X170.417 Y149.32 E36.34394
G1 X169.926 Y149.798 E36.36674
G1 X169.252 Y150.398 E36.39675
G1 X168.527 Y150.937 E36.4268
G1 X167.757 Y151.409 E36.45683
G1 X166.949 Y151.812 E36.48687
G1 X166.108 Y152.141 E36.5169
G1 X165.241 Y152.395 E36.54695
G1 X164.355 Y152.571 E36.577
G1 X163.458 Y152.668 E36.607
G1 X162.555 Y152.686 E36.63704
G1 X161.654 Y152.623 E36.66708
G1 X160.887 Y152.506 E36.69289
G1 X159.092 Y152.161 E36.75368
G1 X156.561 Y151.723 E36.83912
G1 X154.07 Y151.363 E36.92283
G1 X151.52 Y151.068 E37.00821
G1 X148.964 Y150.846 E37.09354
G1 X146.457 Y150.699 E37.17707
G1 X143.933 Y150.623 E37.26105
G1 X141.364 Y150.617 E37.3465
G1 X138.861 Y150.684 E37.42978
G1 X136.308 Y150.823 E37.51482
G1 X133.77 Y151.034 E37.59952
G1 X131.242 Y151.317 E37.68413
G1 X128.742 Y151.668 E37.7681
G1 X126.195 Y152.099 E37.85401
G1 X124.139 Y152.5 E37.92369
G1 X123.246 Y152.634 E37.95372
G1 X122.344 Y152.688 E37.98377
G1 X121.442 Y152.662 E38.01379
G1 X120.545 Y152.556 E38.04383
G1 X119.661 Y152.371 E38.07387
G1 X118.999 Y152.178 E38.0968
